!!!!SEGMENT: pl-sa--295-a-vii-55_lechleitner-ferdinand-simon--ave-regina.krn
!!!cenid: 17xx:423
!!!COM: Lechleitner, Ferdinand Simon
!!!COM-rismid: pe30001903
!!!CDT: ~1700-~1800
!!!CNT:
!!!OTL: Ave Regina
!!!PDT:
!!!AGN: Sacred
!!!SMS-siglum: PL-SA
!!!SMS-shelfmark: 295/A VII 55
!!!SMS-shelfwork: W
!!!NIFC-rismid: 1001039777
!!!URL-scan: http://bc.bdsandomierz.pl/dlibra/publication/1791/edition/1772/content
!!!ONB-nifc:
!!!AIN: 1 alto 1 bass 3 empty 1 tenor 2 violn 1 vox
!!!key:
**kern	**fba	**kern	**dynam	**kern	**dynam	**kern	**text	**kern	**text	**kern	**text	**kern	**text	**kern	**dynam	**kern	**dynam
*part9	*part9	*part8	*part8	*part7	*part7	*part6	*part6	*part5	*part5	*part4	*part4	*part3	*part3	*part2	*part2	*part1	*part1
*staff9	*staff9	*staff8	*	*staff7	*	*staff6	*staff6	*staff5	*staff5	*staff4	*staff4	*staff3	*staff3	*staff2	*	*staff1	*
*Iempty	*	*Ivioln	*	*Ivioln	*	*Ibass	*	*Itenor	*	*Ialto	*	*Ivox	*	*Iempty	*	*Iempty	*
*	*	*I"Violino 2do	*	*I"Violino 1mo	*	*I"Basso	*	*I"Tenore	*	*I"Alto	*	*I"Canto	*	*I"Clarino 2do	*	*I"Clarino 1mo	*
*I'Bc	*	*I'Vn 2	*	*I'V 1	*	*I'B	*	*I'T	*	*I'A	*	*I'C	*	*I'Cl 2	*	*I'Cl 1	*
*clefF4	*	*clefG2	*	*clefG2	*	*clefF4	*	*clefC4	*	*clefC3	*	*clefC1	*	*clefG2	*	*clefG2	*
*	*	*	*	*	*	*	*	*	*	*	*	*	*	*ITrd-1c-2	*	*ITrd-1c-2	*
*k[f#f#c#]	*	*k[f#f#c#]	*	*k[f#f#c#]	*	*k[f#c#]	*	*k[f#c#]	*	*k[f#c#]	*	*k[f#c#]	*	*k[f#c#]	*	*k[f#c#]	*
*D:	*	*D:	*	*D:	*	*D:	*	*D:	*	*D:	*	*D:	*	*	*	*	*
*M4/4	*	*M4/4	*	*M4/4	*	*M4/4	*	*M4/4	*	*M4/4	*	*M4/4	*	*M4/4	*	*M4/4	*
*met(c)	*	*met(c)	*	*met(c)	*	*met(c)	*	*met(c)	*	*met(c)	*	*met(c)	*	*met(c)	*	*met(c)	*
=1	=1	=1	=1	=1	=1	=1	=1	=1	=1	=1	=1	=1	=1	=1	=1	=1	=1
!LO:SIC:o:s=:v:brak nazwy instrumentu. W karcie tytułowej Organo	!	!	!	!	!	!	!	!	!	!	!	!	!	!	!	!	!
!LO:SIC:o=:v:metrum C z ogonkiem u góry	!	!LO:SIC:o=:v:metrum C z ogonkiem u góry	!	!LO:SIC:o=:v:metrum C z ogonkiem u góry	!	!	!	!	!	!	!	!	!	!	!	!	!
!LO:SIC:o:s=:v: 3 krzyżyki (powtórzony fis)	!	!LO:SIC:o:s=:v: 3 krzyżyki (powtórzony fis)	!	!LO:SIC:o:s=:v: 3 krzyżyki (powtórzony fis)	!	!LO:SIC:o=:v:metrum C z ogonkiem u góry	!	!	!	!	!	!	!	!	!	!	!
!LO:SIC:o=:v:4\right global	!	!LO:TX:a:t=Tutti	!	!LO:SIC:o=:v:16\right global	!	!LO:SIC:o=:v:4\right global	!	!LO:SIC:o=:v:metrum C z ogonkiem u góry	!	!LO:SIC:o=:v:metrum C z ogonkiem u góry	!	!LO:SIC:o=:v:metrum C z ogonkiem u góry	!	!LO:SIC:o:s=:v:urwana kartka. Brak klucza,znaków,metrum	!	!LO:SIC:o=:v:metrum C z ogonkiem u góry	!
!LO:TX:a:t=Tutti	!	!LO:SIC:o=:v:8\right global	!	!LO:TX:a:t=Tutti	!	!LO:SIC:o:s=:v: 3 krzyżyki (powtórzony fis)	!	!LO:SIC:o=:v:4\right global	!	!LO:SIC:o=:v:4\right global	!	!LO:SIC:o=:v:4\right global	!	!LO:SIC:o=:v:8\right global	!	!LO:SIC:o=:v:8\right global	!
!LO:TX:b:rj:t=Ave Regina	!	!LO:TX:b:rj:t=Ave Regina	!	!LO:TX:b:rj:t=Ave Regina	!	!	!	!	!	!	!	!	!	!LO:TX:b:rj:t=Ave Regina	!	!LO:TX:b:rj:t=Ave Regina	!
4d\	.	8dd\L	.	16dd\LL	.	4d\	A-	4d\	A-	4f#\	A-	4dd\	A-	8ff#\L	.	8aa\L	.
.	.	.	.	16ee\	.	.	.	.	.	.	.	.	.	.	.	.	.
.	.	8a\J	.	16ff#\	.	.	.	.	.	.	.	.	.	8ff#\J	.	8aa\J	.
.	.	.	.	16gg\JJ	.	.	.	.	.	.	.	.	.	.	.	.	.
!	!	!LO:SIC:o=:v:16\right global	!	!LO:TX:t=P:problem=mixed beam	!	!	!	!	!	!	!	!LO:SIC:o=:v:8\right global	!	!	!	!	!
4c#\	6	16ee\LL	.	16aa\LL	.	8.c#\	-ve	8.A/	-ve	8.a\	-ve	8ee\	-ve	8.ee\L	.	8.aa\L	.
.	.	16cc#\	.	16a/	.	.	.	.	.	.	.	.	.	.	.	.	.
!	!	!	!	!	!	!	!	!	!	!	!	!LO:SIC:o=:v:16\right global	!	!	!	!	!
.	.	16a\	.	16cc#/	.	.	.	.	.	.	.	16dd\LL	Re-	.	.	.	.
!	!	!	!	!	!	!LO:SIC:o=:v:16\right global	!	!	!	!LO:SIC:o=:v:16\right global	!	!	!	!LO:SIC:o=:v:16\right global	!	!LO:SIC:o=:v:16\right global	!
.	.	16cc#\JJ	.	16a/JJ	.	16c#\	Re-	16A/	Re-	16a\	Re-	16ee\JJ	.	16a\Jk	.	16ee\Jk	.
!LO:TX:t=P:problem=mixed beam	!	!	!	!	!	!	!	!	!	!	!	!	!	!	!	!	!
!LO:SIC:o=:v:8\right global	!	!	!	!	!	!LO:SIC:o=:v:8\right global	!	!LO:SIC:o=:v:8\right global	!	!	!	!	!	!	!	!	!
8B\L	.	16dd\LL	.	16b\LL	.	8B\	-gi-	8d\	-gi-	8d\	-gi-	8ff#\	-gi-	16f#/LL	.	16dd\LL	.
.	.	16ee\	.	16cc#\	.	.	.	.	.	.	.	.	.	16a/	.	16ee\	.
!	!	!	!	!	!	!	!	!	!	!LO:SIC:o=:v:8\right global	!	!	!	!	!	!	!
8BB/J	n	16ff#\	.	16dd\	.	8B\	-na	8d\	-na	8d\	-na	8dd\	-na	16dd/	.	16ff#\	.
.	.	16gg\JJ	.	16ee\JJ	.	.	.	.	.	.	.	.	.	16ee/JJ	.	16gg\JJ	.
!	!	!LO:TX:t=P:problem=mixed beam	!	!LO:TX:t=P:problem=mixed beam	!	!	!	!	!	!	!	!	!	!	!	!	!
8r	.	16aa\LL	.	16ff#\LL	.	8r	.	8r	.	8r	.	8r	.	8ff#\L	.	8aa\L	.
.	.	16a/	.	16f#/	.	.	.	.	.	.	.	.	.	.	.	.	.
8F#\	6	16dd/	.	16a/	.	8F#\	a-	8A/	a-	8f#\	a-	8dd\	a-	8dd\J	.	8ff#\J	.
.	.	16a/JJ	.	16f#/JJ	.	.	.	.	.	.	.	.	.	.	.	.	.
=2	=2	=2	=2	=2	=2	=2	=2	=2	=2	=2	=2	=2	=2	=2	=2	=2	=2
!	!	!LO:TX:t=P:problem=mixed beam	!	!LO:TX:t=P:problem=mixed beam	!	!	!	!	!	!	!	!	!	!	!	!	!
8E\L	7	16g/LL	.	16g/LL	.	8E\	-ve	8B\	-ve	8g\	-ve	8dd\	-ve	8dd\L	.	8gg\L	.
.	.	16ee\	.	16gg\	.	.	.	.	.	.	.	.	.	.	.	.	.
8E\	.	16ee\	.	16gg\	.	8E\	Re-	8B\	Re-	8g\	Re-	8dd\	Re-	16cc#\L	.	16ff#\L	.
.	.	16ee\JJ	.	16gg\JJ	.	.	.	.	.	.	.	.	.	16dd\JJ	.	16gg\JJ	.
!	!	!	!	!	!	!	!	!	!	!	!	!	!	!LO:TX:t=P:problem=mixed beam	!	!	!
8A\	.	16cc#\LL	.	16ee\LL	.	8A\	-gi-	8c#\	-gi-	8e\	-gi-	8cc#\	-gi-	8a/L	.	8ee\L	.
.	.	16cc#\	.	16aa\	.	.	.	.	.	.	.	.	.	.	.	.	.
!	!	!	!	!	!	!	!	!LO:SIC:o:s=:v: wszystkie caudy 16\	!	!	!	!	!	!	!	!	!
8A\J	.	16cc#\	.	16aa\	.	16AA/	-na	16c#\	-na	16d\	-na	16b\	-na	8ee\J	.	8aa\J	.
.	.	16cc#\JJ	.	16aa\JJ	.	16AA/	Cae-	16c#\	Cae-	16e\	Cae-	16cc#\	Cae-	.	.	.	.
!	!	!	!	!	!	!	!	!	!	!	!	!	!	!LO:TX:a:t=Solo	!	!	!
4D/	.	8dd\L	.	16ff#\LL	.	8D/	-lo-	8A/	-lo-	8f#\	-lo-	8dd\	-lo-	16dd\LL	.	16ff#\LL	.
.	.	.	.	16dd\	.	.	.	.	.	.	.	.	.	16a\	.	16dd\	.
!	!	!LO:TX:a:t=Solo	!	!	!	!	!	!	!	!	!	!	!	!	!	!	!
.	.	8dd\J	.	16ff#\	.	8D/	-rum	8A/	-rum	8f#\	-rum	8dd\	-rum	16dd\	.	16ff#\	.
.	.	.	.	16gg\JJ	.	.	.	.	.	.	.	.	.	16ee\JJ	.	16gg\JJ	.
!	!	!LO:TX:t=P:problem=mixed beam	!	!LO:TX:t=P:problem=mixed beam	!	!	!	!	!	!	!	!	!	!LO:TX:t=P:problem=mixed beam	!	!	!
4C#/	6	16ee\LL	.	16aa\LL	.	4r	.	4r	.	4r	.	4r	.	8ee\L	.	8aa\L	.
.	.	16a/	.	16a/	.	.	.	.	.	.	.	.	.	.	.	.	.
.	.	16a\	.	16a/	.	.	.	.	.	.	.	.	.	8a/J	.	8ee\J	.
.	.	16a/JJ	.	16a/JJ	.	.	.	.	.	.	.	.	.	.	.	.	.
=3	=3	=3	=3	=3	=3	=3	=3	=3	=3	=3-	=3	=3-	=3	=3	=3	=3	=3
!	!	!	!	!	!	!	!	!	!	!	!	!	!	!LO:SIC:o=:v:4\right global	!	!LO:SIC:o=:v:4\right global	!
4BB/	7	16b/LL	.	16dd\LL	.	1r	.	1r	.	1r	.	1r	.	4dd\	.	4ff#\	.
.	.	16b/	.	16dd\	.	.	.	.	.	.	.	.	.	.	.	.	.
.	.	16b/	.	16dd\	.	.	.	.	.	.	.	.	.	.	.	.	.
.	.	16b/JJ	.	16dd\JJ	.	.	.	.	.	.	.	.	.	.	.	.	.
!	!	!	!	!LO:LB:g=original	!	!	!	!	!	!	!	!	!	!	!	!	!
4EE/	7	16b/LL	.	16dd\LL	.	.	.	.	.	.	.	.	.	8r	.	8r	.
.	.	16b/	.	16dd\	.	.	.	.	.	.	.	.	.	.	.	.	.
.	.	16cc#/	.	16ee\	.	.	.	.	.	.	.	.	.	8ee\	.	8gg#X\	.
.	.	16b/JJ	.	16dd\JJ	.	.	.	.	.	.	.	.	.	.	.	.	.
4AA/	.	16a/LL	.	16cc#\LL	.	.	.	.	.	.	.	.	.	8ee\L	.	8aa\L	.
.	.	16e/	.	16cc#\	.	.	.	.	.	.	.	.	.	.	.	.	.
.	.	16e/	.	16b\	.	.	.	.	.	.	.	.	.	16ee\L	.	8aa\J	.
.	.	16e/JJ	.	16a\JJ	.	.	.	.	.	.	.	.	.	16ee\JJ	.	.	.
4E\	#	8.g#X/L	.	16g#X/LL	.	.	.	.	.	.	.	.	.	8.ee\L	.	8.gg#X\L	.
.	.	.	.	16b/	.	.	.	.	.	.	.	.	.	.	.	.	.
.	.	.	.	16e/	.	.	.	.	.	.	.	.	.	.	.	.	.
.	.	16g#/Jk	.	16g#/JJ	.	.	.	.	.	.	.	.	.	16ee\Jk	.	16gg#\Jk	.
!	!	!LO:LB:g=original	!	!	!	!	!	!	!	!	!	!	!	!LO:LB:g=original	!	!	!
=4	=4	=4	=4	=4	=4	=4-	=4	=4	=4	=4-	=4	=4-	=4	=4	=4	=4	=4
!	!	!	!	!	!	!	!	!	!	!	!	!	!	!LO:TX:t=P:problem=mixed beam	!	!	!
4A\	.	8a/L	.	16a/LL	.	4A\	a-	4A/	a-	4e\	a-	4cc#\	a-	8ee\L	.	8aa\L	.
!	!	!	!	!LO:TX:b:t=T	!	!	!	!	!	!	!	!	!	!	!	!	!
.	.	.	.	16b/	.	.	.	.	.	.	.	.	.	.	.	.	.
.	.	8a/J	.	16cc#/	.	.	.	.	.	.	.	.	.	16a/L	.	16ee\L	.
.	.	.	.	16dd/JJ	.	.	.	.	.	.	.	.	.	16a/JJ	.	16ee\JJ	.
!LO:TX:a:t=Tutti	!	!	!	!LO:TX:t=P:problem=mixed beam	!	!	!	!	!	!	!	!	!	!	!	!	!
4G#X\	.	16b/LL	.	16ee\LL	.	8.G#X\	-ve	8.B\	-ve	8.e\	-ve	8.ee\	-ve	8ee\L	.	8ee\L	.
.	.	16g#X/	.	16e/	.	.	.	.	.	.	.	.	.	.	.	.	.
.	.	16e/	.	16g#X/	.	.	.	.	.	.	.	.	.	8ee\J	.	8gg#X\J	.
.	.	16g#/JJ	.	16e/JJ	.	16G#\	Re-	16B\	Re-	16e\	Re-	16ee\	Re-	.	.	.	.
!	!	!	!	!	!	!	!	!	!	!	!	!	!	!	!	!LO:LB:g=original	!
!LO:TX:t=P:problem=mixed beam	!	!	!	!	!	!	!	!	!	!	!	!	!	!	!	!	!
8F#\L	.	16a/LL	.	16f#/LL	.	8F#\	-gi-	8c#\	-gi-	8f#\	-gi-	8a\	-gi-	8ff#\L	.	8aa\L	.
!	!	!	!	!LO:SIC:o=:v:krzyżyk nad dźwiękiem	!	!	!	!	!	!	!	!	!	!	!	!	!
.	.	16b/	.	16g#X/	.	.	.	.	.	.	.	.	.	.	.	.	.
8FF#/J	n	16cc#/	.	16a/	.	8F#\	-na	8c#\	-na	8f#\	-na	8a\	-na	8ff#\J	.	8aa\	.
.	.	16dd/JJ	.	16b/JJ	.	.	.	.	.	.	.	.	.	.	.	.	.
!	!	!LO:TX:t=P:problem=mixed beam	!	!LO:TX:t=P:problem=mixed beam	!	!	!	!	!	!	!	!	!	!	!	!	!
8r	.	16ee\LL	.	16cc#\LL	.	8r	.	8r	.	8r	.	8r	.	8a\L	.	8ee\	.
.	.	16e/	.	16c#/	.	.	.	.	.	.	.	.	.	.	.	.	.
8C#/	6	16a/	.	16e/	.	8C#/	a-	8A/	a-	8e\	a-	8cc#\	a-	8ee\J	.	8aa\J	.
.	.	16e/JJ	.	16c#/JJ	.	.	.	.	.	.	.	.	.	.	.	.	.
!	!	!	!	!	!	!	!	!	!	!	!	!LO:LB:g=original	!	!	!	!	!
=5	=5	=5	=5	=5	=5	=5	=5	=5	=5	=5	=5	=5	=5	=5	=5	=5	=5
!	!	!	!	!LO:TX:t=P:problem=mixed beam	!	!	!	!	!	!	!	!	!	!	!	!	!
8BB/L	7	16d/LL	.	16d/LL	.	8BB/	-ve	8A/	-ve	8f#\	-ve	8dd\	-ve	8ff#\L	.	8aa\L	.
.	.	16b/	.	16dd\	.	.	.	.	.	.	.	.	.	.	.	.	.
8BB/J	.	16b/	.	16dd\	.	8BB/	Re-	8A/	Re-	8f#\	Re-	8dd\	Re-	16ff#\L	.	16aa\L	.
.	.	16b/JJ	.	16dd\JJ	.	.	.	.	.	.	.	.	.	16ff#\JJ	.	16aa\JJ	.
!	!	!	!	!	!	!	!	!LO:LB:g=original	!	!LO:LB:g=original	!	!	!	!	!	!	!
8E\L	#	16g#X/LL	.	16b\LL	.	8E\	-gi-	8G#X/	-gi-	8e\	-gi-	8b\	-gi-	8ee\L	.	8aa\L	.
.	.	16b/	.	16ee\	.	.	.	.	.	.	.	.	.	.	.	.	.
8E\J	.	16b/	.	16ee\	.	16E\	-na	16F#/	-na	16e\	-na	16a\	-na	8ee\	.	8gg#X\J	.
!	!	!	!	!	!	!LO:SIC:o:s=:v: urwana kartka	!	!	!	!	!	!	!	!	!	!	!
.	.	16b/JJ	.	16ee\JJ	.	16E\yy	Cae-	16G#/	Cae-	16e\	cae-	16b\	Cae-	.	.	.	.
!	!	!	!	!LO:LB:g=original	!	!LO:LB:g=original	!	!	!	!	!	!	!	!	!	!	!
4AA/	.	16a/LL	.	16cc#\LL	.	8AA/	-lo-	8A/	-lo-	8e\	-lo-	8cc#\	-lo-	8ee\	.	8aa\L	.
.	.	16cc#/	.	16ee\	.	.	.	.	.	.	.	.	.	.	.	.	.
.	.	16cc#/	.	16ee\	.	8AA/	-rum	8A/	-rum	8e\	-rum	8a\	-rum	8ee\J	.	8aa\	.
.	.	16cc#/JJ	.	16ee\JJ	.	.	.	.	.	.	.	.	.	.	.	.	.
8A\L	.	16cc#\LL	.	16ee\LL	.	8A\	a-	8A/	a-	8e\	a-	8cc#\	a-	8a/L	.	8ee\	.
.	.	16cc#\	.	16ee\	.	.	.	.	.	.	.	.	.	.	.	.	.
8G\J	4 2	16cc#\	.	16ee\	.	8G\	-ve	8A/	-ve	8e\	-ve	8cc#\	-ve	8a/J	.	8ee\J	.
.	.	16cc#\JJ	.	16ee\JJ	.	.	.	.	.	.	.	.	.	.	.	.	.
!LO:LB:g=original	!	!	!	!	!	!	!	!	!	!	!	!	!	!	!	!	!
=6	=6	=6	=6	=6	=6	=6	=6	=6	=6	=6	=6	=6	=6	=6	=6	=6	=6
8F#\L	6	16dd\LL	.	16ff#\LL	.	8F#\	Do-	8A/	Do-	8f#\	Do-	8dd\	Do-	16dd\LL	.	16ff#\LL	.
.	.	16ee\	.	16gg\	.	.	.	.	.	.	.	.	.	16ee\	.	16gg\	.
8E\	6	16dd\	.	16ff#\	.	16E\	-mi-	16A/	-mi-	16f#\	-mi-	16dd\	-mi-	16dd\	.	16ff#\	.
.	.	16ee\JJ	.	16gg\JJ	.	16E\	-na	16G/	-na	16g\	-na	16cc#\	-na	16ee\JJ	.	16gg\JJ	.
8F#\	6	16dd\LL	.	16ff#\LL	.	8F#\	An-	8A/	An-	8f#\	An-	8dd\	An-	8dd\L	.	8ff#\L	.
.	.	16ee\	.	16gg\	.	.	.	.	.	.	.	.	.	.	.	.	.
8E\J	.	16dd\	.	16ff#\	.	8D/	-ge-	8A/	-ge-	8f#\	-ge-	8dd\	-ge-	8dd\J	.	8ff#\J	.
.	.	16cc#\JJ	.	16ee\JJ	.	.	.	.	.	.	.	.	.	.	.	.	.
!LO:TX:t=P:problem=mixed beam	!	!	!	!	!	!	!	!	!	!	!	!	!	!	!	!	!
8G\L	.	16b/LL	.	16dd\LL	.	8G\	-lo-	8B\	-lo-	8d\	-lo-	8b\	-lo-	8dd\L	.	8gg\L	.
.	.	16b/	.	16dd\	.	.	.	.	.	.	.	.	.	.	.	.	.
8GG/J	.	16b/	.	16dd\	.	8G\	-rum	8B\	-rum	8d\	-rum	8b\	-rum	8dd\J	.	8gg\J	.
.	.	16b/JJ	.	16dd\JJ	.	.	.	.	.	.	.	.	.	.	.	.	.
4r	.	16b/LL	.	16dd\LL	.	4r	.	4r	.	4r	.	4r	.	4r	.	4r	.
.	.	16cc#/	.	16ee\	.	.	.	.	.	.	.	.	.	.	.	.	.
.	.	16b/	.	16dd\	.	.	.	.	.	.	.	.	.	.	.	.	.
.	.	16a/JJ	.	16cc#\JJ	.	.	.	.	.	.	.	.	.	.	.	.	.
=7	=7	=7	=7	=7	=7	=7	=7	=7	=7	=7	=7	=7	=7	=7	=7	=7	=7
!	!	!LO:TX:t=P:problem=mixed beam	!	!LO:TX:t=P:problem=mixed beam	!	!	!	!	!	!	!	!	!	!	!	!	!
4.G\	.	16g/LL	.	16b/LL	.	4.G\	a-	4.d\	a-	4.g\	A-	4.b\	a-	1r	.	1r	.
.	.	16dd\	.	16gg\	.	.	.	.	.	.	.	.	.	.	.	.	.
.	.	16dd\	.	16gg\	.	.	.	.	.	.	.	.	.	.	.	.	.
.	.	16dd\JJ	.	16gg\JJ	.	.	.	.	.	.	.	.	.	.	.	.	.
!	!	!LO:LB:g=original	!	!	!	!	!	!	!	!	!	!	!	!	!	!	!
.	.	16dd\LL	.	16gg\LL	.	.	.	.	.	.	.	.	.	.	.	.	.
.	.	16dd\	.	16aa\	.	.	.	.	.	.	.	.	.	.	.	.	.
8F#\	6	16dd\	.	16gg\	.	8F#\	-ve	8d\	-ve	8a\	-ve	8b\	-ve	.	.	.	.
.	.	16dd\JJ	.	16aa\JJ	.	.	.	.	.	.	.	.	.	.	.	.	.
8E\L	6_ 5_	16cc#\LL	.	16gg\LL	.	8E\	Do-	8e\	Do-	8g\	Do-	8cc#\	Do-	.	.	.	.
.	.	16dd\	.	16gg\	.	.	.	.	.	.	.	.	.	.	.	.	.
8F#\	.	16cc#\	.	16gg\	.	16E\	-mi-	16e\	-mi-	16g\	-mi-	16cc#\	-mi-	.	.	.	.
.	.	16dd\JJ	.	16gg\JJ	.	16F#\	-na	16d\	-na	16g\	-na	16dd\	-na	.	.	.	.
8G\	.	16b\LL	.	16gg\LL	.	(16G\LL	An-	8e\	An-	8g\	An-	8cc#\	An-	.	.	.	.
.	.	16ee\	.	16gg\	.	16F#\JJ)	.	.	.	.	.	.	.	.	.	.	.
8E\J	.	16ee\	.	16gg\	.	8E\	-ge-	8e\	-ge-	8g\	-ge-	8b\	-ge-	.	.	.	.
.	.	16ee\JJ	.	16gg\JJ	.	.	.	.	.	.	.	.	.	.	.	.	.
!	!	!	!	!LO:LB:g=original	!	!	!	!	!	!	!	!LO:LB:g=original	!	!	!	!	!
=8	=8	=8	=8	=8	=8	=8	=8	=8	=8	=8	=8	=8	=8	=8	=8	=8-	=8
4F#\	#	16a#X/LL	.	16cc#\LL	.	8F#\	-lo-	8c#\	-lo-	8f#\	-lo-	8a#X\	-lo-	8f#/L	.	8f#/L	.
.	.	16ff#/	.	16aa#X\	.	.	.	.	.	.	.	.	.	.	.	.	.
.	.	16ff#/	.	16aa#\	.	8F#\	-rum	8c#\	-rum	8f#\	-rum	8f#/	-rum	16f#/L	.	16f#/L	.
.	.	16a#X/JJ	.	16cc#\JJ	.	.	.	.	.	.	.	.	.	16f#/JJ	.	16f#/JJ	.
!	!	!	!	!	!	!	!	!LO:SIC:o:s=:v: niewyraźna wartość rytm.	!	!	!	!	!	!	!	!	!
4A#X\	6	16a#/LL	.	16cc#\LL	.	8A#X\	Do-	8c#\	Do-	8f#\	Do-	8ff#\	D-	16f#/LL	.	16f#/LL	.
.	.	16ff#/	.	16aa#\	.	.	.	.	.	.	.	.	.	16f#/	.	16f#/	.
.	5	16ff#/	.	16aa#\	.	16A#\	-mi-	16c#\	-mi-	16f#\	-mi-	16ff#\	-mi-	16f#/	.	16f#/	.
.	.	16a#X/JJ	.	16cc#\JJ	.	16A#\	-na	16c#\	-na	16f#\	-na	16ee\	-na	16f#/JJ	.	16f#/JJ	.
!	!	!	!	!	!	!	!	!LO:LB:g=original	!	!LO:LB:g=original	!	!	!	!	!	!	!
!LO:TX:t=P:problem=mixed beam	!	!	!	!	!	!	!	!	!	!	!	!	!	!	!	!	!
8B\L	n	16dd\LL	.	16dd\LL	.	8B\	An-	8B\	An-	8f#\	An-	8dd\	An-	16f#/LL	.	16f#/LL	.
.	.	16gg\	.	16bb\	.	.	.	.	.	.	.	.	.	16f#/	.	16f#/	.
8E\	6	16gg\	.	16bb\	.	8E\	-ge-	8c#\	-ge-	8g\	-ge-	16cc#\LL	-ge-	16f#/	.	16f#/	.
.	5	16gg\JJ	.	16bb\JJ	.	.	.	.	.	.	.	16b\JJ	.	16f#/JJ	.	16f#/JJ	.
!	!	!	!	!	!	!LO:LB:g=original	!	!	!	!	!	!	!	!LO:LB:g=original	!	!	!
8F#\	6 4	16ff#\LL	.	16bb\LL	.	4F#\	-lo-	4c#\	-lo-	4f#\	-lo-	4a#X\	-lo-	16f#/LL	.	16f#/LL	.
.	.	16ff#\	.	16bb\	.	.	.	.	.	.	.	.	.	16f#/	.	16f#/	.
8FF#/J	#	16ff#\	.	16aa#X\	.	.	.	.	.	.	.	.	.	16f#/	.	16f#/	.
.	.	16ff#\JJ	.	16aa#\JJ	.	.	.	.	.	.	.	.	.	16f#/JJ	.	16f#/JJ	.
=9	=9	=9	=9	=9	=9	=9	=9	=9	=9	=9	=9	=9	=9	=9	=9	=9	=9
4BB/	n	16ff#\LL	.	16bb\LL	.	4BB/	-rum	4d\	-rum	4f#\	-rum	4b\	-rum	4f#/	.	4f#/	.
.	.	16dd\	.	16ff#\	.	.	.	.	.	.	.	.	.	.	.	.	.
.	.	16dd\	.	16ff#\	.	.	.	.	.	.	.	.	.	.	.	.	.
.	.	16dd\JJ	.	16ff#\JJ	.	.	.	.	.	.	.	.	.	.	.	.	.
8B\L	#	16dd#X\LL	.	16ff#\LL	.	8B\	a-	8B\	a-	8f#\	a-	8dd#X\	a-	4r	.	4r	.
.	.	16dd#\	.	16ff#\	.	.	.	.	.	.	.	.	.	.	.	.	.
8A\J	.	16dd#\	.	16ff#\	.	8A\	-ve	8B\	-ve	8f#\	-ve	8dd#\	-ve	.	.	.	.
.	.	16dd#\JJ	.	16ff#\JJ	.	.	.	.	.	.	.	.	.	.	.	.	.
8G\L	6	16ee\LL	.	16gg\LL	.	8G\	Do-	8B\	Do-	8g\	Do-	8ee\	Do-	2r	.	2r	.
.	.	16ff#\	.	16aa\	.	.	.	.	.	.	.	.	.	.	.	.	.
8F#\	6	16ee\	.	16gg\	.	16F#\	-mi-	16B\	-mi-	16g\	-mi-	16ee\	-mi-	.	.	.	.
.	.	16ff#\JJ	.	16aa\JJ	.	16F#\	-na	16A/	-na	16a\	-na	16dd#\	-na	.	.	.	.
8G\	6	16ee\LL	.	16gg\LL	.	8G\	An-	8B\	An-	8g\	An-	8ee\	An-	.	.	.	.
.	.	16ee\	.	16gg\	.	.	.	.	.	.	.	.	.	.	.	.	.
8E\J	7	16ee\	.	16gg\	.	8E\	-ge-	8B\	-ge-	8g\	-ge-	8ee\	-ge-	.	.	.	.
.	.	16ee\JJ	.	16gg\JJ	.	.	.	.	.	.	.	.	.	.	.	.	.
!	!	!	!	!	!	!	!	!	!	!	!	!	!	!	!	!LO:LB:g=original	!
=10	=10	=10	=10	=10	=10	=10	=10	=10	=10	=10	=10	=10	=10	=10	=10	=10	=10
4AA/	.	16ee\LL	.	16aa\LL	.	8A\	-lo-	8c#\	-lo-	8e\	-lo-	8cc#\	-lo-	4r	.	4r	.
.	.	16cc#\	.	16ee\	.	.	.	.	.	.	.	.	.	.	.	.	.
.	.	16cc#\	.	16ee\	.	8A\	-rum	8A/	-rum	8e\	-rum	8cc#\	-rum	.	.	.	.
.	.	16cc#\JJ	.	16ee\JJ	.	.	.	.	.	.	.	.	.	.	.	.	.
!	!	!LO:LB:g=original	!	!LO:LB:g=original	!	!	!	!	!	!	!	!	!	!	!	!	!
8A\L	.	16cc#\LL	.	16ee\LL	.	8A\	a-	8A/	a-	8e\	a-	8cc#\	a-	8a/L	.	8ee\L	.
.	.	16cc#\	.	16ee\	.	.	.	.	.	.	.	.	.	.	.	.	.
8G\J	4 2	16cc#\	.	16ee\	.	8G\	-ve	8A/	-ve	8e\	-ve	8cc#\	-ve	8a/J	.	8ee\J	.
.	.	16cc#\JJ	.	16ee\JJ	.	.	.	.	.	.	.	.	.	.	.	.	.
8F#\L	6	16dd\LL	.	16ff#\LL	.	8F#\	Do-	8A/	Do-	8f#\	Do-	8dd\	Do-	16dd\LL	.	16ff#\LL	.
.	.	16ee\	.	16gg\	.	.	.	.	.	.	.	.	.	16ee\	.	16gg\	.
8E\	6	16dd\	.	16ff#\	.	16E\	-mi-	16A/	-mi-	16f#\	-mi-	16dd\	-mi-	16dd\	.	16ff#\	.
.	.	16ee\JJ	.	16gg\JJ	.	16E\	-na	16G/	-na	16g\	-na	16cc#\	-na	16ee\JJ	.	16gg\JJ	.
!	!	!	!	!	!	!	!	!	!	!	!	!LO:LB:g=original	!	!	!	!	!
8F#\	6	16dd\LL	.	16ff#\LL	.	8F#\	An-	8A/	An-	8f#\	An-	8dd\	An-	8dd\L	.	8ff#\L	.
.	.	16dd\	.	16ff#\	.	.	.	.	.	.	.	.	.	.	.	.	.
8D\J	.	16dd\	.	16ff#\	.	8D/	-ge-	8A/	-ge-	8f#\	-ge-	8dd\	-ge-	8dd\J	.	8ff#\J	.
.	.	16dd\JJ	.	16ff#\JJ	.	.	.	.	.	.	.	.	.	.	.	.	.
!LO:LB:g=original	!	!	!	!	!	!	!	!	!	!	!	!	!	!	!	!	!
=11	=11	=11	=11	=11	=11	=11	=11	=11	=11	=11	=11	=11	=11	=11	=11	=11	=11
!LO:TX:t=P:problem=mixed beam	!	!	!	!	!	!	!	!	!	!	!	!	!	!	!	!	!
8GG/L	.	16dd\LL	.	16gg\LL	.	8G\	-lo-	8B\	-lo-	8d\	-lo-	8b\	-lo-	8dd\L	.	16gg\LL	.
.	.	16dd\	.	16gg\	.	.	.	.	.	.	.	.	.	.	.	16aa\	.
8G\	.	16dd\	.	16gg\	.	8G\	-rum	8G/	-rum	8d\	-rum	8b\	-rum	8dd\J	.	16gg\	.
.	.	16dd\JJ	.	16gg\JJ	.	.	.	.	.	.	.	.	.	.	.	16ff#\JJ	.
8G#X\	.	16b\LL	.	16ee\LL	.	8G#X\	Do-	8B\	Do-	8e\	Do-	8ee\	Do-	8ee\L	.	8ee\L	.
.	.	16ee\	.	16gg#X\	.	.	.	.	.	.	.	.	.	.	.	.	.
8E\J	.	16ee\	.	16gg#\	.	16E\	-mi-	16B\	-mi-	16e\	-mi-	16ee\	-mi-	16ee\L	.	8ee\J	.
!	!	!	!	!	!	!	!	!	!	!	!	!LO:N:vis=8	!	!	!	!	!
.	.	16ee\JJ	.	16gg#\JJ	.	16E\	-na	16B\	-na	16e\	-na	16dd\	-na	16ee\JJ	.	.	.
!	!	!	!	!	!	!	!	!LO:LB:g=original	!	!LO:LB:g=original	!	!	!	!	!	!	!
8A\L	.	16cc#\LL	.	16aa\LL	.	8A\	An-	8A/	An-	8e\	An-	8cc#\	An-	8a/L	.	8ee\L	.
.	.	16ff#\	.	16aa\	.	.	.	.	.	.	.	.	.	.	.	.	.
8d\J	.	16ff#\	.	16aa\	.	8D/	-ge-	8A/	-ge-	8f#\	-ge-	16dd\LL	-ge-	16f#/L	.	16dd\L	.
.	.	16ff#\JJ	.	16aa\JJ	.	.	.	.	.	.	.	16ee\JJ	.	16a/JJ	.	16ee\JJ	.
!	!	!	!	!	!	!LO:LB:g=original	!	!	!	!	!	!	!	!	!	!	!
!LO:TX:t=P:problem=mixed beam	!	!	!	!	!	!LO:TX:t=P:problem=mixed beam	!	!	!	!	!	!	!	!	!	!	!
8A\L	4	16ee\LL	.	16aa\LL	.	8A\L	-lo-	4A/	-lo-	4e\	-lo-	(8dd\L	-lo-	8dd\L	.	8ff#\L	.
.	.	16ee\	.	16aa\	.	.	.	.	.	.	.	.	.	.	.	.	.
8AA/J	3	16ee\	.	16aa\	.	8AA/J	.	.	.	.	.	8cc#\J)	.	8a\J	.	16ee\L	.
.	.	16ee\JJ	.	16aa\JJ	.	.	.	.	.	.	.	.	.	.	.	16dd\JJ	.
=12	=12	=12	=12	=12	=12	=12	=12	=12	=12	=12	=12	=12	=12	=12	=12	=12	=12
!	!	!LO:SIC:o=:v:4\right global	!	!LO:SIC:o=:v:4\right global	!	!	!	!	!	!	!	!	!	!	!	!	!
4D/	.	4ff#\	.	4aa\	.	4D/	-rum	4A/	-rum	4f#\	-rum	4dd\	-rum	4f#/	.	4dd\	.
!LO:TX:a:t=solo	!	!LO:TX:a:t=solo	!	!LO:TX:a:t=Solo	!	!	!	!	!	!	!	!	!	!	!	!	!
8r	.	8dd\L	.	(16aa\LL	.	4r	.	4r	.	4r	.	4r	.	8r	.	8r	.
.	.	.	.	16dd\J)	.	.	.	.	.	.	.	.	.	.	.	.	.
!	!	!	!	!LO:SIC:o=:v:8\right global	!	!	!	!	!	!	!	!	!	!LO:TX:a:t=Solo	!	!	!
8D/	.	8ff#\J	.	8dd\J	.	.	.	.	.	.	.	.	.	8ff#\	.	8aa\	.
!LO:TX:t=P:problem=mixed beam	!	!	!	!	!	!	!	!	!	!	!	!	!	!	!	!	!
8G\L	.	8gg\L	.	8bb\L	.	2r	.	2r	.	2r	.	2r	.	8gg\L	.	8bb\L	.
8D\	.	16ff#\L	.	16aa\L	.	.	.	.	.	.	.	.	.	16ff#\L	.	16aa\L	.
.	.	16gg\JJ	.	16bb\JJ	.	.	.	.	.	.	.	.	.	16gg\JJ	.	16bb\JJ	.
8E\	7	16ee\LL	.	(16gg\LL	.	.	.	.	.	.	.	.	.	16ee\LL	.	16gg\LL	.
.	.	16gg\	.	16bb\JJ)	.	.	.	.	.	.	.	.	.	16gg\	.	16bb\	.
8AA/J	7	16ff#\	.	(16aa\LL	.	.	.	.	.	.	.	.	.	16ff#\	.	16aa\	.
.	.	16ee\JJ	.	16gg\JJ)	.	.	.	.	.	.	.	.	.	16ee\JJ	.	16gg\JJ	.
!	!	!	!	!LO:LB:g=original	!	!	!	!	!	!	!	!	!	!LO:LB:g=original	!	!	!
=13	=13	=13	=13	=13	=13	=13-	=13	=13-	=13	=13-	=13	=13-	=13	=13	=13	=13	=13
!	!	!	!	!	!	!	!	!	!	!	!	!	!	!	!	!LO:TX:t=P:problem=mixed beam	!
8D\L	.	8dd\L	.	[4ff#\	.	00r	.	00r	.	0r	.	00r	.	8dd\L	.	8ff#\L	.
8E\	.	8a\J	.	.	.	.	.	.	.	.	.	.	.	8a\J	.	8a/J	.
8F#\	.	16dd\LL	.	16ff#\LL]	.	.	.	.	.	.	.	.	.	4a/	.	4a/	.
.	.	16ee\	.	16gg\	.	.	.	.	.	.	.	.	.	.	.	.	.
8D\J	.	16dd\	.	16ff#\	.	.	.	.	.	.	.	.	.	.	.	.	.
.	.	16ee\JJ	.	16gg\JJ	.	.	.	.	.	.	.	.	.	.	.	.	.
4A\	.	(16cc#\LL	.	(16ee\LL	.	.	.	.	.	.	.	.	.	8r	.	8r	.
.	.	16b\J)	.	16dd\J)	.	.	.	.	.	.	.	.	.	.	.	.	.
.	.	8cc#\J	.	8ee\J	.	.	.	.	.	.	.	.	.	8A/	.	8a/	.
8r	.	16dd\LL	.	16ff#\LL	.	.	.	.	.	.	.	.	.	4A/	.	4a/	.
.	.	16ee\	.	16gg\	.	.	.	.	.	.	.	.	.	.	.	.	.
8D/	.	16dd\	.	16ff#\	.	.	.	.	.	.	.	.	.	.	.	.	.
.	.	16ee\JJ	.	16gg\JJ	.	.	.	.	.	.	.	.	.	.	.	.	.
!	!	!LO:LB:g=original	!	!	!	!	!	!	!	!	!	!	!	!	!	!	!
=14	=14	=14	=14	=14	=14	=14	=14	=14	=14	=14	=14	=14	=14	=14	=14	=14	=14
8A\L	.	(16cc#\LL	.	(16ee\LL	.	.	.	.	.	.	.	.	.	8r	.	8r	.
.	.	16b\J)	.	16dd\J)	.	.	.	.	.	.	.	.	.	.	.	.	.
8G\	6 4	8cc#\J	.	8ee\J	.	.	.	.	.	.	.	.	.	8a/L	.	8a/	.
!	!	!	!	!	!	!	!	!	!	!	!	!	!	!	!	!LO:TX:t=P:problem=mixed beam	!
8F#\	6	8dd\L	.	16aa\LL	.	.	.	.	.	.	.	.	.	8a/	.	8a/L	.
.	.	.	.	16dd\J	.	.	.	.	.	.	.	.	.	.	.	.	.
8D\J	.	8ff#\J	.	8dd\J	.	.	.	.	.	.	.	.	.	8dd/J	.	8aa\J	.
!	!	!	!	!	!	!	!	!	!	!	!	!	!	!	!	!LO:LB:g=original	!
8G\L	.	8gg\L	.	8bb\L	.	.	.	.	.	.	.	.	.	8gg\L	.	8bb\L	.
8D\	.	16ff#\L	.	16aa\L	.	.	.	.	.	.	.	.	.	16ff#\L	.	16aa\L	.
.	.	16gg\JJ	.	16bb\JJ	.	.	.	.	.	.	.	.	.	16gg\JJ	.	16bb\JJ	.
8E\	.	16ee\LL	.	16gg\LL	.	.	.	.	.	.	.	.	.	16ee\LL	.	16gg\LL	.
.	.	16gg\	.	16bb\	.	.	.	.	.	.	.	.	.	16gg\	.	16bb\	.
8A\J	7	16ff#\	.	16aa\	.	.	.	.	.	.	.	.	.	16ff#\	.	16aa\	.
.	.	16ee\JJ	.	16gg\JJ	.	.	.	.	.	.	.	.	.	16ee\JJ	.	16gg\JJ	.
=15	=15	=15	=15	=15	=15	=15	=15	=15	=15	=15-	=15	=15	=15	=15	=15	=15	=15
!	!	!	!	!LO:TX:b:t=A Salve	!	!	!	!	!	!	!	!	!	!	!	!	!
8D\L	.	8dd\L	.	8ff#\L	.	.	.	.	.	4r	.	.	.	4dd\	.	4ff#\	.
8E\	.	8a\J	.	8dd\J	.	.	.	.	.	.	.	.	.	.	.	.	.
8F#\	.	4r	.	4r	.	.	.	.	.	16a\LL	Sal-	.	.	4r	.	4r	.
!	!	!	!	!	!	!	!	!	!	!LO:TX:a:t=solo	!	!	!	!	!	!	!
.	.	.	.	.	.	.	.	.	.	16d\JJ	.	.	.	.	.	.	.
!LO:TX:b:t=Alt	!	!	!	!	!	!	!	!	!	!	!	!	!	!	!	!	!
8D\J	.	.	.	.	.	.	.	.	.	8d\	-ve	.	.	.	.	.	.
!LO:TX:t=P:problem=mixed beam	!	!	!	!	!	!	!	!	!	!	!	!	!	!	!	!	!
8G\L	.	2r	.	2r	.	.	.	.	.	8b\	ra-	.	.	2r	.	2r	.
8F#\	6	.	.	.	.	.	.	.	.	16a\LL	-dix	.	.	.	.	.	.
.	.	.	.	.	.	.	.	.	.	16b\JJ	.	.	.	.	.	.	.
8E\	7	.	.	.	.	.	.	.	.	16g\LL	Sal-	.	.	.	.	.	.
.	.	.	.	.	.	.	.	.	.	16b\JJ	.	.	.	.	.	.	.
8AA/J	7	.	.	.	.	.	.	.	.	16a\LL	-ve	.	.	.	.	.	.
.	.	.	.	.	.	.	.	.	.	16g\JJ	.	.	.	.	.	.	.
!LO:LB:g=original	!	!	!	!	!	!	!	!	!	!	!	!	!	!	!	!	!
=16	=16	=16	=16	=16	=16	=16	=16	=16	=16	=16	=16	=16	=16	=16-	=16	=16	=16
4D/	.	16r	.	16r	.	.	.	.	.	8f#\	por-	.	.	0r	.	0r	.
.	.	16dd\LL	.	16dd\LL	.	.	.	.	.	.	.	.	.	.	.	.	.
.	.	16dd\	.	16ff#\	.	.	.	.	.	8d\	-ta	.	.	.	.	.	.
.	.	16ee\JJ	.	16gg\JJ	.	.	.	.	.	.	.	.	.	.	.	.	.
!	!	!LO:TX:t=P:problem=mixed beam	!	!	!	!	!	!	!	!	!	!	!	!	!	!	!
4F#\	.	8ff#\L	.	16aa\LL	.	.	.	.	.	4r	.	.	.	.	.	.	.
.	.	.	.	16dd\	.	.	.	.	.	.	.	.	.	.	.	.	.
.	.	8a/J	.	16dd\	.	.	.	.	.	.	.	.	.	.	.	.	.
!	!	!	!	!LO:SIC:o:s=:v: bemol zamiast kasownika	!	!	!	!	!	!	!	!	!	!	!	!	!
.	.	.	.	16cc-X\JJ	.	.	.	.	.	.	.	.	.	.	.	.	.
!	!	!LO:TX:t=P:problem=mixed beam	!	!	!	!	!	!	!	!	!	!	!	!	!	!	!
!	!	!	!	!LO:LB:g=original	!	!	!	!	!	!	!	!	!	!	!	!	!
4G\	.	16g/LL	.	16b\LL	.	.	.	.	.	2r	.	.	.	.	.	.	.
.	.	16ee\	.	16gg\	.	.	.	.	.	.	.	.	.	.	.	.	.
.	.	16ee\	.	16gg\	.	.	.	.	.	.	.	.	.	.	.	.	.
.	.	16ff#\JJ	.	16aa\JJ	.	.	.	.	.	.	.	.	.	.	.	.	.
4G#X\	.	8ee\L	.	16bb\LL	.	.	.	.	.	.	.	.	.	.	.	.	.
.	.	.	.	16ee\	.	.	.	.	.	.	.	.	.	.	.	.	.
.	.	8b\J	.	16ee\	.	.	.	.	.	.	.	.	.	.	.	.	.
.	.	.	.	16dd\JJ	.	.	.	.	.	.	.	.	.	.	.	.	.
=17	=17	=17	=17	=17	=17	=17	=17	=17	=17	=17	=17	=17	=17	=17	=17	=17	=17
8A\L	.	4a/	.	8cc#\L	.	00r	.	00r	.	4r	.	00r	.	.	.	.	.
8Gn\	.	.	.	8a\J	.	.	.	.	.	.	.	.	.	.	.	.	.
8F#\	.	4r	.	4r	.	.	.	.	.	16a\LL	Sal-	.	.	.	.	.	.
.	.	.	.	.	.	.	.	.	.	16d\JJ	.	.	.	.	.	.	.
8D\J	.	.	.	.	.	.	.	.	.	8d\	-ve	.	.	.	.	.	.
8GG/L	.	2r	.	2r	.	.	.	.	.	8b\	ra-	.	.	.	.	.	.
8D/J	.	.	.	.	.	.	.	.	.	16a\LL	-dix	.	.	.	.	.	.
.	.	.	.	.	.	.	.	.	.	16b\JJ	.	.	.	.	.	.	.
!LO:TX:t=P:problem=mixed beam	!	!	!	!	!	!	!	!	!	!	!	!	!	!	!	!	!
8E\L	.	.	.	.	.	.	.	.	.	16g\LL	Sal-	.	.	.	.	.	.
.	.	.	.	.	.	.	.	.	.	16b\JJ	.	.	.	.	.	.	.
8AA/J	7	.	.	.	.	.	.	.	.	16a\LL	-ve	.	.	.	.	.	.
.	.	.	.	.	.	.	.	.	.	16g\JJ	.	.	.	.	.	.	.
!	!	!	!	!	!	!	!	!	!	!LO:LB:g=original	!	!	!	!	!	!	!
=18	=18	=18	=18	=18	=18	=18	=18	=18	=18	=18	=18	=18	=18	=18-	=18	=18-	=18
!	!	!	!LO:DY:a	!	!LO:DY:a:t=piano	!	!	!	!	!	!	!	!	!	!	!	!
4D/	.	4r	p	16r	p	.	.	.	.	8f#\	por-	.	.	4r	.	4r	.
.	.	.	.	16a\LL	.	.	.	.	.	.	.	.	.	.	.	.	.
.	.	.	.	16b\	.	.	.	.	.	8d\	-ta	.	.	.	.	.	.
.	.	.	.	16cc#\JJ	.	.	.	.	.	.	.	.	.	.	.	.	.
!	!	!	!	!	!	!	!	!	!	!	!	!	!	!	!LO:DY:a	!	!LO:DY:a
4r	.	8r	.	(16dd\LL	.	.	.	.	.	16f#\LL	ex	.	.	8r	p	8r	p
.	.	.	.	16ee\)	.	.	.	.	.	16g\JJ	.	.	.	.	.	.	.
.	.	8d/	.	(16dd\	.	.	.	.	.	16f#\LL	qua	.	.	8d/	.	8d/	.
.	.	.	.	16ee\JJ)	.	.	.	.	.	16g\JJ	.	.	.	.	.	.	.
2r	.	4a/	.	(16cc#\LL	.	.	.	.	.	16e\LL	mun-	.	.	4a/	.	4a/	.
.	.	.	.	16b\J)	.	.	.	.	.	16d\JJ	.	.	.	.	.	.	.
.	.	.	.	8cc#\J	.	.	.	.	.	8e\	-do	.	.	.	.	.	.
.	.	8r	.	(16dd\LL	.	.	.	.	.	16f#\LL	lux	.	.	8r	.	8r	.
.	.	.	.	16ee\)	.	.	.	.	.	16g\JJ	.	.	.	.	.	.	.
.	.	8d/	.	(16dd\	.	.	.	.	.	16f#\LL	est	.	.	8d/	.	8d/	.
.	.	.	.	16ee\JJ)	.	.	.	.	.	16g\JJ	.	.	.	.	.	.	.
=19	=19	=19	=19	=19	=19	=19	=19	=19	=19	=19	=19	=19	=19	=19	=19	=19	=19
8AA/L	.	4a/	.	(16cc#\LL	.	.	.	.	.	(16e\LL	or-	.	.	4a/	.	4a/	.
.	.	.	.	16b\)	.	.	.	.	.	16d\JJ)	.	.	.	.	.	.	.
8BB/	.	.	.	16cc#\	.	.	.	.	.	8e\	-ta	.	.	.	.	.	.
.	.	.	.	16dd\JJ	.	.	.	.	.	.	.	.	.	.	.	.	.
!	!	!	!LO:DY:a	!	!LO:DY:a:t=forte	!	!	!	!	!	!	!	!	!	!	!	!
8C#/	.	8a/L	f	(16ee\LL	f	.	.	.	.	4r	.	.	.	8r	.	8r	.
.	.	.	.	16a\J)	.	.	.	.	.	.	.	.	.	.	.	.	.
!	!	!	!	!	!	!	!	!	!	!	!	!	!	!	!LO:DY:a	!	!LO:DY:a
8AA/J	.	8cc#/J	.	8a\J	.	.	.	.	.	.	.	.	.	8ee\	f	8aa\	f
8D/L	.	8dd\L	.	8ff#\L	.	.	.	.	.	2r	.	.	.	8ff#\L	.	8aa\L	.
8AA/	.	16cc#\L	.	16ee\L	.	.	.	.	.	.	.	.	.	8ee\	.	8aa\	.
.	.	16dd\JJ	.	16ff#\JJ	.	.	.	.	.	.	.	.	.	.	.	.	.
!	!	!LO:LB:g=original	!	!LO:LB:g=original	!	!	!	!	!	!	!	!	!	!	!	!	!
8BB/	7	16b\LL	.	16dd\LL	.	.	.	.	.	.	.	.	.	8dd\	.	8aa\	.
.	.	16dd\	.	16ff#\	.	.	.	.	.	.	.	.	.	.	.	.	.
8E/J	#	16cc#\	.	16ee\	.	.	.	.	.	.	.	.	.	8ee\J	.	8gg#X\J	.
.	.	16b\JJ	.	16dd\JJ	.	.	.	.	.	.	.	.	.	.	.	.	.
!	!	!	!	!	!	!	!	!	!	!	!	!	!	!LO:LB:g=original	!	!	!
=20	=20	=20	=20	=20	=20	=20	=20	=20	=20	=20	=20	=20	=20	=20	=20	=20	=20
!	!	!	!	!	!	!	!	!	!	!	!	!	!	!LO:TX:t=P:problem=mixed beam	!	!	!
4AA/	.	8a/L	.	8cc#\L	.	.	.	.	.	4r	.	.	.	8ee\L	.	8aa\L	.
.	.	8e/	.	8a\J	.	.	.	.	.	.	.	.	.	8a/J	.	8ee\J	.
!	!	!	!	!	!LO:DY:a:t=piano	!	!	!	!	!LO:TX:t=P:problem=mixed beam	!	!	!	!	!	!	!
4r	.	8c#/	.	8e/L	p	.	.	.	.	16e\LL	Sal-	.	.	4r	.	4r	.
.	.	.	.	.	.	.	.	.	.	16A/JJ	.	.	.	.	.	.	.
.	.	8A/J	.	8c#/J	.	.	.	.	.	8A/	-ve	.	.	.	.	.	.
2r	.	8d/L	.	8d/L	.	.	.	.	.	8f#\	ra-	.	.	2r	.	2r	.
.	.	8A/	.	8c#/J	.	.	.	.	.	16e\LL	-dix	.	.	.	.	.	.
.	.	.	.	.	.	.	.	.	.	16f#\JJ	.	.	.	.	.	.	.
.	.	8B/	.	8B/L	.	.	.	.	.	16d\LL	sal-	.	.	.	.	.	.
.	.	.	.	.	.	.	.	.	.	16f#\JJ	.	.	.	.	.	.	.
.	.	8e/J	.	8e/J	.	.	.	.	.	16e\LL	-ve	.	.	.	.	.	.
.	.	.	.	.	.	.	.	.	.	16d\JJ	.	.	.	.	.	.	.
=21	=21	=21	=21	=21	=21	=21	=21	=21	=21	=21	=21	=21	=21	=21-	=21	=21-	=21
4AA/	.	8A/L	.	16A/LL	.	00r	.	00r	.	8c#/	por-	00r	.	0r	.	0r	.
.	.	.	.	16a/	.	.	.	.	.	.	.	.	.	.	.	.	.
.	.	8e'/	.	16a/	.	.	.	.	.	8A,/	-ta	.	.	.	.	.	.
.	.	.	.	16b/JJ	.	.	.	.	.	.	.	.	.	.	.	.	.
8r	.	8e'/	.	16cc#\LL	.	.	.	.	.	16a\LL	ex	.	.	.	.	.	.
.	.	.	.	16dd\	.	.	.	.	.	16b\JJ	.	.	.	.	.	.	.
8AA/	.	8e'/J	.	16cc#\	.	.	.	.	.	16a\LL	qua	.	.	.	.	.	.
.	.	.	.	16dd\JJ	.	.	.	.	.	16b\JJ	.	.	.	.	.	.	.
!	!	!	!	!	!	!	!	!	!	!LO:LB:g=original	!	!	!	!	!	!	!
4E\	#	8e'/L	.	16b/LL	.	.	.	.	.	16g#X\LL	mun-	.	.	.	.	.	.
.	.	.	.	16a/J	.	.	.	.	.	16f#\JJ	.	.	.	.	.	.	.
.	.	8e'/	.	8b/J	.	.	.	.	.	8g#\	-do	.	.	.	.	.	.
8r	.	8e'/	.	16cc#\LL	.	.	.	.	.	16a\LL	lux	.	.	.	.	.	.
.	.	.	.	16dd\	.	.	.	.	.	16b\JJ	.	.	.	.	.	.	.
8AA/	.	8e'/J	.	16cc#\	.	.	.	.	.	16a\LL	est	.	.	.	.	.	.
.	.	.	.	16dd\JJ	.	.	.	.	.	16b\JJ	.	.	.	.	.	.	.
=22	=22	=22	=22	=22	=22	=22	=22	=22	=22	=22	=22	=22	=22	=22	=22	=22	=22
8E\L	#	8e'/L	.	(16b/LL	.	.	.	.	.	16g#X\LL	or-	.	.	.	.	.	.
.	.	.	.	16a/J)	.	.	.	.	.	16f#\JJ	.	.	.	.	.	.	.
8D\J	4# 2	8e'/J	.	8b/J	.	.	.	.	.	8g#X\	-ta	.	.	.	.	.	.
!LO:LB:g=original	!	!	!	!	!	!	!	!	!	!	!	!	!	!	!	!	!
8C#/L	6	4r	.	4r	.	.	.	.	.	(16a\LL	gau-	.	.	.	.	.	.
.	5	.	.	.	.	.	.	.	.	16d\JJ)	.	.	.	.	.	.	.
8D/J	.	.	.	.	.	.	.	.	.	8d\	-de	.	.	.	.	.	.
!LO:TX:t=P:problem=mixed beam	!	!	!	!	!	!	!	!	!	!	!	!	!	!	!	!	!
8G\L	.	2r	.	2r	.	.	.	.	.	8b\	Vir-	.	.	.	.	.	.
8F#\	.	.	.	.	.	.	.	.	.	16a\LL	-go	.	.	.	.	.	.
.	.	.	.	.	.	.	.	.	.	16b\JJ	.	.	.	.	.	.	.
!	!	!	!	!	!	!	!	!	!	!LO:SIC:s=:v:16gn	!	!	!	!	!	!	!
8E\	.	.	.	.	.	.	.	.	.	16g#\LL	glo-	.	.	.	.	.	.
.	.	.	.	.	.	.	.	.	.	16b\JJ	.	.	.	.	.	.	.
8AA/J	8 3	.	.	.	.	.	.	.	.	16a\LL	-ri-	.	.	.	.	.	.
!	!	!	!	!	!	!	!	!	!	!LO:SIC:s=:v:16gn	!	!	!	!	!	!	!
.	7	.	.	.	.	.	.	.	.	16g#\JJ	.	.	.	.	.	.	.
=23	=23	=23	=23	=23	=23	=23	=23	=23	=23	=23	=23	=23	=23	=23-	=23	=23-	=23
8D\L	.	4r	.	4r	.	.	.	.	.	8f#\	-o-	.	.	8r	.	8r	.
8E\	.	.	.	.	.	.	.	.	.	8d\	-sa	.	.	8A/	.	8a/	.
!	!	!	!	!	!LO:DY:a	!	!	!	!	!	!	!	!	!	!	!	!
8F#\	.	16dd\LL	.	16ff#\LL	f	.	.	.	.	4r	.	.	.	4A/	.	4a/	.
.	.	16ee\	.	16gg\	.	.	.	.	.	.	.	.	.	.	.	.	.
8D\J	.	16dd\	.	16ff#\	.	.	.	.	.	.	.	.	.	.	.	.	.
.	.	16ee\JJ	.	16gg\JJ	.	.	.	.	.	.	.	.	.	.	.	.	.
!	!	!	!	!LO:TX:b:t=Vertatur Cito	!	!	!	!	!	!	!	!	!	!	!	!	!
!	!	!	!	!LO:PB:g=original	!	!	!	!	!	!	!	!	!	!	!	!	!
4A\	.	16cc#\LL	.	(16ee\LL	.	.	.	.	.	2r	.	.	.	8r	.	8r	.
.	.	16b\J	.	16dd\J)	.	.	.	.	.	.	.	.	.	.	.	.	.
.	.	8cc#\J	.	8ee\J	.	.	.	.	.	.	.	.	.	8A/	.	8a/	.
8r	.	16dd\LL	.	16ff#\LL	.	.	.	.	.	.	.	.	.	4A/	.	4a/	.
.	.	16ee\	.	16gg\	.	.	.	.	.	.	.	.	.	.	.	.	.
8D/	.	16dd\	.	16ff#\	.	.	.	.	.	.	.	.	.	.	.	.	.
.	.	16ee\JJ	.	16gg\JJ	.	.	.	.	.	.	.	.	.	.	.	.	.
=24	=24	=24	=24	=24	=24	=24	=24	=24	=24	=24	=24	=24	=24	=24	=24	=24	=24
8A\L	.	(16cc#\LL	.	(16ee\LL	.	.	.	.	.	4r	.	.	.	1r	.	1r	.
.	.	16b\J)	.	16dd\J)	.	.	.	.	.	.	.	.	.	.	.	.	.
8G\	6 4	8cc#\J	.	8ee\J	.	.	.	.	.	.	.	.	.	.	.	.	.
8F#\	6	4r	.	4r	.	.	.	.	.	16a\LL	gau-	.	.	.	.	.	.
.	.	.	.	.	.	.	.	.	.	16d\JJ	.	.	.	.	.	.	.
8D\J	.	.	.	.	.	.	.	.	.	8d\	-de	.	.	.	.	.	.
8G\L	.	2r	.	2r	.	.	.	.	.	8b\	Vir-	.	.	.	.	.	.
8F#\	.	.	.	.	.	.	.	.	.	(16a\LL	-go	.	.	.	.	.	.
.	.	.	.	.	.	.	.	.	.	16b\JJ)	.	.	.	.	.	.	.
8E\	.	.	.	.	.	.	.	.	.	(16g\LL	glo-	.	.	.	.	.	.
.	.	.	.	.	.	.	.	.	.	16b\JJ)	.	.	.	.	.	.	.
8A\J	7	.	.	.	.	.	.	.	.	(16a\LL	-ri-	.	.	.	.	.	.
.	.	.	.	.	.	.	.	.	.	16g\JJ)	.	.	.	.	.	.	.
!	!	!	!	!	!	!	!	!	!	!LO:LB:g=original	!	!	!	!	!	!LO:LB:g=original	!
=25	=25	=25	=25	=25	=25	=25	=25	=25	=25	=25	=25	=25	=25	=25-	=25	=25	=25
!	!	!	!LO:DY:a	!	!	!	!	!	!	!	!	!	!	!	!	!	!
4D/	.	8r	p	16r	.	00r	.	00r	.	8f#\	-o-	00r	.	4r	.	4r	.
.	.	.	.	16a\LL	.	.	.	.	.	.	.	.	.	.	.	.	.
.	.	8a/	.	16b\	.	.	.	.	.	8d\	-sa	.	.	.	.	.	.
.	.	.	.	16cc#\JJ	.	.	.	.	.	.	.	.	.	.	.	.	.
4r	.	4A/	.	16dd\LL	.	.	.	.	.	(16f#\LL	Su-	.	.	8r	.	8r	.
.	.	.	.	16ee\	.	.	.	.	.	16g\JJ)	.	.	.	.	.	.	.
.	.	.	.	16dd\	.	.	.	.	.	(16f#\LL	-per	.	.	8d/	.	8d/	.
.	.	.	.	16ee\JJ	.	.	.	.	.	16g\JJ)	.	.	.	.	.	.	.
!	!	!LO:LB:g=original	!	!	!	!	!	!	!	!	!	!	!	!	!	!	!
2r	.	8r	.	(16cc#\LL	.	.	.	.	.	(16e\LL	om-	.	.	4A/	.	4a/	.
.	.	.	.	16b\J)	.	.	.	.	.	16d\JJ)	.	.	.	.	.	.	.
.	.	8a/	.	8cc#\J	.	.	.	.	.	8e\	-nes	.	.	.	.	.	.
.	.	4A/	.	16dd\LL	.	.	.	.	.	16f#\LL	Spe-	.	.	8r	.	8r	.
.	.	.	.	16ee\	.	.	.	.	.	16g\JJ	.	.	.	.	.	.	.
.	.	.	.	16dd\	.	.	.	.	.	16f#\LL	-ci-	.	.	8d/	.	8d/	.
.	.	.	.	16ee\JJ	.	.	.	.	.	16g\JJ	.	.	.	.	.	.	.
=26	=26	=26-	=26	=26	=26	=26	=26	=26	=26	=26	=26	=26	=26	=26	=26	=26	=26
4r	.	0r	.	(16cc#\LL	.	.	.	.	.	(16e\LL	-o-	.	.	4A/	.	4a/	.
.	.	.	.	16b\J)	.	.	.	.	.	16d\JJ)	.	.	.	.	.	.	.
.	.	.	.	8cc#\J	.	.	.	.	.	8e\	-sa	.	.	.	.	.	.
4D/	5	.	.	4r	.	.	.	.	.	8a\	Su-	.	.	4r	.	4r	.
.	6	.	.	.	.	.	.	.	.	16b\LL	-per	.	.	.	.	.	.
.	.	.	.	.	.	.	.	.	.	16a\JJ	.	.	.	.	.	.	.
4E\	.	.	.	2r	.	.	.	.	.	16g\LL	om-	.	.	2r	.	2r	.
.	.	.	.	.	.	.	.	.	.	16f#\JJ	.	.	.	.	.	.	.
.	.	.	.	.	.	.	.	.	.	(16e\LL	-nes	.	.	.	.	.	.
.	.	.	.	.	.	.	.	.	.	16f#\JJ)	.	.	.	.	.	.	.
4C#/	5	.	.	.	.	.	.	.	.	(16g\LL	Spe-	.	.	.	.	.	.
.	6	.	.	.	.	.	.	.	.	16b\JJ)	.	.	.	.	.	.	.
.	.	.	.	.	.	.	.	.	.	(16a\LL	-ci-	.	.	.	.	.	.
.	.	.	.	.	.	.	.	.	.	16g\JJ)	.	.	.	.	.	.	.
=27	=27	=27	=27	=27	=27	=27	=27	=27	=27	=27	=27	=27	=27	=27	=27	=27-	=27
4D/	.	.	.	1r	.	.	.	.	.	8f#\	-o-	.	.	1r	.	1r	.
.	.	.	.	.	.	.	.	.	.	8d\	-sa	.	.	.	.	.	.
!	!	!	!	!	!	!	!	!	!	!LO:SIC:o:s=:v: bemol zamiast kasownika	!	!	!	!	!	!	!
8r	.	.	.	.	.	.	.	.	.	8f-X\	Su-	.	.	.	.	.	.
!LO:SIC:o:s=:v: niewyraźny dźwięk d/e	!	!	!	!	!	!	!	!	!	!	!	!	!	!	!	!	!
8D/	.	.	.	.	.	.	.	.	.	16e\LL	-per	.	.	.	.	.	.
.	.	.	.	.	.	.	.	.	.	16d\JJ	.	.	.	.	.	.	.
!	!	!	!	!	!	!	!	!	!	!LO:LB:g=original	!	!	!	!	!	!	!
!LO:TX:t=P:problem=mixed beam	!	!	!	!	!	!	!	!	!	!	!	!	!	!	!	!	!
8A\L	#	.	.	.	.	.	.	.	.	8c#/	Spe-	.	.	.	.	.	.
8G\	5	.	.	.	.	.	.	.	.	16d\LL	-ci-	.	.	.	.	.	.
.	6	.	.	.	.	.	.	.	.	16e\JJ	.	.	.	.	.	.	.
8A\	6 4	.	.	.	.	.	.	.	.	4e\	-o-	.	.	.	.	.	.
8AA/J	3	.	.	.	.	.	.	.	.	.	.	.	.	.	.	.	.
!	!	!	!	!LO:LB:g=original	!	!	!	!	!	!	!	!	!	!	!	!	!
!LO:LB:g=original	!	!	!	!	!	!	!	!	!	!	!	!	!	!	!	!	!
=28	=28	=28-	=28	=28-	=28	=28	=28	=28	=28	=28	=28	=28	=28	=28-	=28	=28-	=28
!LO:SIC:o:s=:v:oznaczenie	!	!	!LO:DY:a	!	!	!	!	!	!	!	!	!	!	!	!LO:DY:a	!LO:SIC:o:s=:v: for	!LO:DY:a
8D\L	.	4r	f	4r	.	.	.	.	.	4d\	-sa	.	.	4ff#\	f	4aa\	f
!LO:SIC:o:s=:v:oznaczenie	!	!	!	!	!	!	!	!	!	!	!	!	!	!	!	!	!
8E\	.	.	.	.	.	.	.	.	.	.	.	.	.	.	.	.	.
8F#\	.	8dd\L	.	16aa\LL	.	.	.	.	.	4r	.	.	.	8r	.	8r	.
.	.	.	.	16dd\J	.	.	.	.	.	.	.	.	.	.	.	.	.
8D\J	.	8ff#\J	.	8dd\J	.	.	.	.	.	.	.	.	.	8ff#\	.	8aa\	.
!LO:TX:t=P:problem=mixed beam	!	!	!	!	!	!	!	!	!	!	!	!	!	!	!	!	!
8G\L	.	8gg\L	.	8bb\L	.	.	.	.	.	2r	.	.	.	8gg\L	.	8bb\L	.
8D\	.	16ff#\L	.	16aa\L	.	.	.	.	.	.	.	.	.	16ff#\L	.	16aa\L	.
.	.	16gg\JJ	.	16bb\JJ	.	.	.	.	.	.	.	.	.	16gg\JJ	.	16bb\JJ	.
8E\	7	16ee\LL	.	16gg\LL	.	.	.	.	.	.	.	.	.	16ee\LL	.	16gg\LL	.
.	.	16gg\	.	16bb\	.	.	.	.	.	.	.	.	.	16gg\	.	16bb\	.
8AA/J	7	16ff#\	.	16aa\	.	.	.	.	.	.	.	.	.	16ff#\	.	16aa\	.
.	.	16ee\JJ	.	16gg\JJ	.	.	.	.	.	.	.	.	.	16ee\JJ	.	16gg\JJ	.
!	!	!	!	!	!	!	!	!	!	!	!	!	!	!LO:LB:g=original	!	!	!
=29	=29	=29	=29	=29	=29	=29	=29	=29	=29	=29-	=29	=29	=29	=29	=29	=29	=29
!	!	!	!	!	!	!	!	!	!	!	!	!	!	!LO:TX:t=P:problem=mixed beam	!	!LO:TX:t=P:problem=mixed beam	!
4.D/	.	8dd\L	.	[4ff#\	.	00r	.	00r	.	00r	.	00r	.	8dd\L	.	8ff#\L	.
.	.	8a\J	.	.	.	.	.	.	.	.	.	.	.	8a/J	.	8a/J	.
.	.	16dd\LL	.	16ff#\LL]	.	.	.	.	.	.	.	.	.	4a/	.	4a/	.
.	.	16ee\	.	16gg\	.	.	.	.	.	.	.	.	.	.	.	.	.
8D/	.	16dd\	.	16ff#\	.	.	.	.	.	.	.	.	.	.	.	.	.
.	.	16ee\JJ	.	16gg\JJ	.	.	.	.	.	.	.	.	.	.	.	.	.
4A\	.	(16cc#\LL	.	(16ee\LL	.	.	.	.	.	.	.	.	.	8r	.	8r	.
.	.	16b\J)	.	16dd\J)	.	.	.	.	.	.	.	.	.	.	.	.	.
.	.	8cc#\J	.	8ee\J	.	.	.	.	.	.	.	.	.	8A/	.	8a/	.
8r	.	16dd\LL	.	16ff#\LL	.	.	.	.	.	.	.	.	.	4A/	.	4a/	.
.	.	16ee\	.	16gg\	.	.	.	.	.	.	.	.	.	.	.	.	.
8D/	.	16dd\	.	16ff#\	.	.	.	.	.	.	.	.	.	.	.	.	.
.	.	16ee\JJ	.	16gg\JJ	.	.	.	.	.	.	.	.	.	.	.	.	.
=30	=30	=30	=30	=30	=30	=30	=30	=30	=30	=30	=30	=30	=30	=30	=30	=30	=30
!LO:TX:t=P:problem=mixed beam	!	!	!	!	!	!	!	!	!	!	!	!	!	!	!	!	!
8A\L	.	(16cc#\LL	.	(16ee\LL	.	.	.	.	.	.	.	.	.	8r	.	8r	.
.	.	16b\J)	.	16dd\J)	.	.	.	.	.	.	.	.	.	.	.	.	.
8AA/	.	8cc#\J	.	8ee\J	.	.	.	.	.	.	.	.	.	8a\L	.	8a/	.
!	!	!	!	!	!	!	!	!	!	!	!	!	!	!	!	!LO:TX:t=P:problem=mixed beam	!
8C#/	.	8a/L	.	16ee\LL	.	.	.	.	.	.	.	.	.	8a\	.	8a/L	.
.	.	.	.	16a\J	.	.	.	.	.	.	.	.	.	.	.	.	.
8AA/J	.	8cc#/J	.	8a\J	.	.	.	.	.	.	.	.	.	8ee\J	.	8aa\J	.
!LO:TX:t=P:problem=mixed beam	!	!	!	!	!	!	!	!	!	!	!	!	!	!	!	!	!
8D/L	.	8dd\L	.	8ff#\L	.	.	.	.	.	.	.	.	.	8ff#\L	.	8aa\L	.
8A\	.	16cc#\L	.	16ee\L	.	.	.	.	.	.	.	.	.	8ee\	.	8aa\	.
.	.	16dd\JJ	.	16ff#\JJ	.	.	.	.	.	.	.	.	.	.	.	.	.
8B\	7	16b\LL	.	16dd\LL	.	.	.	.	.	.	.	.	.	8dd\	.	8aa\	.
.	.	16dd\	.	16ff#\	.	.	.	.	.	.	.	.	.	.	.	.	.
8E\J	7	16cc#\	.	16ee\	.	.	.	.	.	.	.	.	.	8ee\J	.	8gg#X\J	.
.	.	16b\JJ	.	16dd\JJ	.	.	.	.	.	.	.	.	.	.	.	.	.
!	!	!	!	!LO:LB:g=original	!	!	!	!	!	!	!	!	!	!	!	!	!
=31	=31	=31	=31	=31	=31	=31	=31	=31	=31	=31	=31	=31	=31	=31	=31	=31	=31
4A\	.	16a\LL	.	16cc#\LL	.	.	.	.	.	.	.	.	.	16ee\LL	.	16aa\LL	.
.	.	16cc#\	.	16ee\	.	.	.	.	.	.	.	.	.	16a\	.	16ee\	.
.	.	16dd\	.	16ff#\	.	.	.	.	.	.	.	.	.	16dd\	.	16ff#\	.
.	.	16ee\JJ	.	16gg\JJ	.	.	.	.	.	.	.	.	.	16ee\JJ	.	16gg\JJ	.
!	!	!LO:LB:g=original	!	!	!	!	!	!	!	!	!	!	!	!	!	!	!
!	!	!LO:TX:t=P:problem=mixed beam	!	!	!	!	!	!	!	!	!	!	!	!	!	!	!
4F#\	6	8ff#\L	.	16aa\LL	.	.	.	.	.	.	.	.	.	16ff#\LL	.	16aa\LL	.
.	5	.	.	16dd\	.	.	.	.	.	.	.	.	.	16ee\	.	16gg\	.
.	n	8a/J	.	16dd\	.	.	.	.	.	.	.	.	.	16dd\	.	16ff#\	.
!	!	!	!	!LO:SIC:o:s=:v: bemol zamiast kasownika	!	!	!	!	!	!	!	!	!	!	!	!	!
.	.	.	.	16cc-X\JJ	.	.	.	.	.	.	.	.	.	16a\JJ	.	16ee\JJ	.
!	!	!	!	!	!	!	!	!	!	!	!	!	!	!	!	!LO:LB:g=original	!
!	!	!LO:TX:t=P:problem=mixed beam	!	!LO:TX:t=P:problem=mixed beam	!	!	!	!	!	!	!	!	!	!LO:TX:t=P:problem=mixed beam	!	!	!
4G\	5	16g/LL	.	16b/LL	.	.	.	.	.	.	.	.	.	16f#/LL	.	16dd\LL	.
.	.	16dd\	.	16gg\	.	.	.	.	.	.	.	.	.	16dd\	.	16gg\	.
.	6	16ee\	.	16gg\	.	.	.	.	.	.	.	.	.	16ee\	.	16gg\	.
.	.	16ff#\JJ	.	16aa\JJ	.	.	.	.	.	.	.	.	.	16ff#\JJ	.	16aa\JJ	.
4G#X\	6	8ee\L	.	16bb\LL	.	.	.	.	.	.	.	.	.	8ee\L	.	16bb\LL	.
.	.	.	.	16ee\	.	.	.	.	.	.	.	.	.	.	.	16aa\	.
.	5	8b\J	.	16ee\	.	.	.	.	.	.	.	.	.	8dd\J	.	16gg\	.
.	.	.	.	16dd\JJ	.	.	.	.	.	.	.	.	.	.	.	16ff#\JJ	.
=32	=32	=32	=32	=32	=32	=32	=32	=32	=32	=32	=32	=32	=32	=32	=32	=32	=32
8A\L	.	4a/	.	8cc#\L	.	.	.	.	.	.	.	.	.	4cc#/	.	4ee\	.
8G\	4 2	.	.	8a\J	.	.	.	.	.	.	.	.	.	.	.	.	.
8F#\	.	8dd\L	.	16aa\LL	.	.	.	.	.	.	.	.	.	8r	.	8r	.
.	.	.	.	16dd\J	.	.	.	.	.	.	.	.	.	.	.	.	.
8D\J	6	8ff#\J	.	8dd\J	.	.	.	.	.	.	.	.	.	8ff#\	.	8aa\	.
8GG/L	.	8gg\L	.	8bb\L	.	.	.	.	.	.	.	.	.	8gg\L	.	8bb\L	.
8D/J	.	16ff#\L	.	16aa\L	.	.	.	.	.	.	.	.	.	16ff#\L	.	16aa\L	.
.	.	16gg\JJ	.	16bb\JJ	.	.	.	.	.	.	.	.	.	16gg\JJ	.	16bb\JJ	.
!LO:TX:t=P:problem=mixed beam	!	!	!	!	!	!	!	!	!	!	!	!	!	!	!	!	!
8E\L	.	16ee\LL	.	16gg\LL	.	.	.	.	.	.	.	.	.	16ee\LL	.	16gg\LL	.
.	.	16gg\	.	16bb\	.	.	.	.	.	.	.	.	.	16gg\	.	16bb\	.
8AA/J	7	16ff#\	.	16aa\	.	.	.	.	.	.	.	.	.	16ff#\	.	16aa\	.
.	.	16ee\JJ	.	16gg\JJ	.	.	.	.	.	.	.	.	.	16ee\JJ	.	16gg\JJ	.
!LO:LB:g=original	!	!	!	!	!	!	!	!	!	!	!	!	!	!	!	!	!
=33	=33	=33	=33	=33	=33	=33	=33	=33	=33	=33	=33	=33	=33	=33	=33	=33	=33
!	!	!LO:TX:t=P:problem=mixed beam	!	!	!	!	!	!	!	!	!	!	!	!	!	!	!
8D\L	.	8dd\L	.	16ff#\LL	.	1r	.	1r	.	1r	.	1r	.	16dd\LL	.	16ff#\LL	.
.	.	.	.	16ee\	.	.	.	.	.	.	.	.	.	16ee\	.	16gg\	.
8E\	6	8cc#\	.	16ff#\	.	.	.	.	.	.	.	.	.	16dd\	.	16ff#\	.
.	.	.	.	16gg\JJ	.	.	.	.	.	.	.	.	.	16a\JJ	.	16ee\JJ	.
!	!	!	!	!	!	!	!	!	!	!	!	!	!	!LO:N:vis=8.	!	!	!
8F#\	6	8dd/	.	16aa\LL	.	.	.	.	.	.	.	.	.	8f#/L	.	8dd\L	.
.	.	.	.	16dd\	.	.	.	.	.	.	.	.	.	.	.	.	.
8D\J	.	8f#/J	.	16cc#\	.	.	.	.	.	.	.	.	.	8f#/J	.	8dd\J	.
.	.	.	.	16dd\JJ	.	.	.	.	.	.	.	.	.	.	.	.	.
!	!	!	!	!LO:LB:g=original	!	!	!	!	!	!	!	!	!	!LO:LB:g=original	!	!	!
!LO:TX:t=P:problem=mixed beam	!	!	!	!	!	!	!	!	!	!	!	!	!	!	!	!	!
8G\L	6_ 5_	16f#/LL	.	16b\LL	.	.	.	.	.	.	.	.	.	8d/L	.	8ee\L	.
.	.	16cc#/	.	16ee\	.	.	.	.	.	.	.	.	.	.	.	.	.
8E\	.	16dd/	.	16ff#\	.	.	.	.	.	.	.	.	.	16f#/L	.	16dd\L	.
.	.	16ee/JJ	.	16gg\JJ	.	.	.	.	.	.	.	.	.	16a/JJ	.	16ee\JJ	.
!	!	!	!	!	!	!	!	!	!	!	!	!	!	!LO:TX:t=P:problem=mixed beam	!	!	!
8A\	4	8e/L	.	8a/L	.	.	.	.	.	.	.	.	.	16dd\LL	.	8ff#\L	.
.	.	.	.	.	.	.	.	.	.	.	.	.	.	16d/	.	.	.
8AA\J	3	8a/J	.	8cc#/J	.	.	.	.	.	.	.	.	.	16f#/	.	8ee\J	.
.	.	.	.	.	.	.	.	.	.	.	.	.	.	16a/JJ	.	.	.
=34	=34	=34	=34	=34	=34	=34-	=34	=34-	=34	=34-	=34	=34-	=34	=34	=34	=34	=34
!	!	!LO:TX:t=P:problem=mixed beam	!	!	!	!	!	!	!	!	!	!	!	!	!	!	!
!	!	!LO:TX:a:t=Tutti	!	!	!	!	!	!	!	!	!	!	!	!	!	!	!
4D/	.	16f#/LL	.	16dd\LL	.	4r	.	4r	.	4r	.	4r	.	4f#/	.	4dd\	.
.	.	16ff#\	.	16aa\	.	.	.	.	.	.	.	.	.	.	.	.	.
.	.	16ff#\	.	16aa\	.	.	.	.	.	.	.	.	.	.	.	.	.
!	!	!	!	!	!	!	!	!	!	!	!	!	!	!	!	!LO:TX:a:t=T	!
.	.	16ff#\JJ	.	16aa\JJ	.	.	.	.	.	.	.	.	.	.	.	.	.
!	!	!	!	!LO:TX:b:t=Tutti	!	!	!	!	!	!	!	!	!	!LO:TX:a:t=Tutti	!	!	!
8d\L	.	16ff#\LL	.	16aa\LL	.	8d\	va-	8d\	va-	8a\	Va-	8ff#\	Va-	8dd\L	.	8aa\L	.
.	.	16ff#\	.	16aa\	.	.	.	.	.	.	.	.	.	.	.	.	.
!LO:TX:b:t=Tutti	!	!	!	!	!	!	!	!	!	!	!	!	!	!	!	!	!
8A\J	.	16ee\	.	16aa\	.	8A\	-le	8c#\	-le	8a\	-le	8ee\	-le	8ee\J	.	8aa\	.
.	.	16ee\JJ	.	16aa\JJ	.	.	.	.	.	.	.	.	.	.	.	.	.
!LO:TX:t=P:problem=mixed beam	!	!	!	!	!	!	!	!	!	!	!	!	!	!	!	!	!
8D/L	.	8dd\L	.	8ff#\L	.	4r	.	4r	.	4r	.	4r	.	8ff#\L	.	8aa\	.
8A\J	.	8cc#\J	.	8ee\J	.	.	.	.	.	.	.	.	.	8ee\J	.	8aa\J	.
*	*	*	*	*	*	*	*ij	*	*	*	*	*	*	*	*	*	*
8d\L	.	16dd\LL	.	16ff#\LL	.	8d\	va-	8f#\	va-	8a\	va-	8dd\	va-	8r	.	8r	.
.	.	16ee\	.	16aa\	.	.	.	.	.	.	.	.	.	.	.	.	.
8c#\J	6	16ee\	.	16aa\	.	8A\	-le	8e\	-le	8a\	-le	8ee\	-le	8ee\	.	8aa\	.
.	.	16ee\JJ	.	16aa\JJ	.	.	.	.	.	.	.	.	.	.	.	.	.
*	*	*	*	*	*	*	*Xij	*	*	*	*	*	*	*	*	*	*
!	!	!LO:TX:b:t=Vertatur cito	!	!	!	!	!	!	!	!	!	!	!	!	!	!	!
!	!	!LO:PB:g=original	!	!	!	!	!	!	!	!	!	!	!	!	!	!	!
=35	=35	=35	=35	=35	=35	=35	=35	=35	=35	=35	=35	=35	=35	=35	=35	=35	=35
*	*	*	*	*	*	*	*	*	*ij	*	*	*	*	*	*	*	*
4d\	.	16ff#\LL	.	16ff#\LL	.	4d\	va-	4d\	va-	4a\	va-	4ff#\	val-	8.ff#\L	.	8.aa\L	.
.	.	16ff#\	.	16aa\	.	.	.	.	.	.	.	.	.	.	.	.	.
.	.	16ff#\	.	16aa\	.	.	.	.	.	.	.	.	.	.	.	.	.
.	.	16ff#\JJ	.	16aa\JJ	.	.	.	.	.	.	.	.	.	16ff#\Jk	.	16aa\Jk	.
8c#\L	6	16ee\LL	.	16aa\LL	.	8c#\	-le	8e\	-le	8a\	-le	16ee\LL	-de	16ee\LL	.	8aa\L	.
.	.	16ff#\	.	16aa\	.	.	.	.	.	.	.	16ff#\JJ	.	16ff#\	.	.	.
*	*	*	*	*	*	*	*	*	*Xij	*	*	*	*	*	*	*	*
8B\J	6\	16ee\	.	16gg#X\	.	8B\	o	8B\	o	8g#X\	o	16ee\LL	de-	16ee\	.	8gg#X\J	.
.	.	16dd\JJ	.	16gg#\JJ	.	.	.	.	.	.	.	16dd\JJ	.	16dd\JJ	.	.	.
4A\	.	16cc#\LL	.	16aa\LL	.	8A\	va-	8c#\	val-	8a\	val-	8cc#\	-co-	4ee\	.	4aa\	.
.	.	16ee\	.	16aa\	.	.	.	.	.	.	.	.	.	.	.	.	.
.	.	16ee\	.	16aa\	.	8A\	-le	8c#\	-de	8a\	-de	8a\	-ra	.	.	.	.
.	.	16ee\JJ	.	16aa\JJ	.	.	.	.	.	.	.	.	.	.	.	.	.
!	!	!	!	!	!	!	!	!	!	!	!	!	!	!LO:TX:t=P:problem=mixed beam	!	!LO:TX:t=P:problem=mixed beam	!
4r	.	8cc#\L	.	8aa\L	.	4r	.	4r	.	4r	.	4r	.	8a/L	.	8a/L	.
.	.	8b\J	.	8gg#\J	.	.	.	.	.	.	.	.	.	8ee\J	.	8ee\J	.
!	!	!	!	!	!	!	!	!	!	!	!	!LO:LB:g=original	!	!	!	!LO:LB:g=original	!
=36	=36	=36	=36	=36	=36	=36	=36	=36	=36	=36	=36	=36	=36	=36	=36	=36	=36
8A\L	.	8cc#\L	.	8ee\L	.	8A\	va-	8e\	va-	8a\	va-	8cc#\	va-	4r	.	4r	.
8E\J	#	8b\	.	8gg#X\	.	8E\	-le	8e\	-le	8g#X\	-le	8b\	-le	.	.	.	.
!LO:TX:t=P:problem=mixed beam	!	!	!	!	!	!	!	!	!	!	!	!	!	!	!	!LO:TX:t=P:problem=mixed beam	!
8AA/L	.	8cc#\	.	8aa\	.	8r	.	8r	.	8r	.	8r	.	8a/L	.	8a/L	.
8E\J	#	8b\J	.	8gg#X\J	.	8E\	o	8B\	o	8g#\	o	8ee\	o	8ee/J	.	8ee\J	.
!	!	!	!	!LO:LB:g=original	!	!	!	!	!	!	!	!	!	!	!	!	!
!LO:TX:t=P:problem=mixed beam	!	!	!	!	!	!	!	!	!	!	!	!	!	!	!	!	!
8AA/L	.	16cc#\LL	.	16aa\LL	.	4A\	val-	4A/	val-	4e\	val-	4cc#\	val-	2r	.	2r	.
.	.	16cc#\	.	16aa\	.	.	.	.	.	.	.	.	.	.	.	.	.
8A\	.	16cc#\	.	16aa\	.	.	.	.	.	.	.	.	.	.	.	.	.
.	.	16cc#\JJ	.	16aa\JJ	.	.	.	.	.	.	.	.	.	.	.	.	.
8G#X\	6	16b/LL	.	16ee\LL	.	8G#X\	-de	8B\	-de	8e\	-de	16b\LL	-de	.	.	.	.
.	.	16cc#/	.	16ee\	.	.	.	.	.	.	.	16cc#\JJ	.	.	.	.	.
8F#\J	6\	16b/	.	16ff#\	.	8F#\	de-	8A/	de-	8f#\	de-	16b\LL	de-	.	.	.	.
.	.	16a/JJ	.	16ff#\JJ	.	.	.	.	.	.	.	16a\JJ	.	.	.	.	.
!	!	!	!	!	!	!	!	!LO:LB:g=originals	!	!LO:PB:g=original	!	!	!	!	!	!	!
=37	=37	=37	=37	=37	=37	=37	=37	=37	=37	=37	=37	=37	=37	=37-	=37	=37-	=37
!	!	!LO:TX:t=P:problem=mixed beam	!	!	!	!	!	!	!	!	!	!	!	!	!	!	!
8E\L	4_ 2_	16g#X/LL	.	16gg#X\LL	.	8E\	-co-	8B\	-co-	8B/	-co-	8g#X/	-co-	1r	.	1r	.
.	.	16ee\	.	16gg#\	.	.	.	.	.	.	.	.	.	.	.	.	.
8D\J	.	16ee\	.	16gg#\	.	8D/	-ra	8B\	-ra	8B/	-ra	8e/	-ra	.	.	.	.
.	.	16ee\JJ	.	16gg#\JJ	.	.	.	.	.	.	.	.	.	.	.	.	.
!	!	!	!	!	!	!LO:LB:g=original	!	!	!	!	!	!	!	!	!	!	!
8C#/L	6	16ee\LL	.	16aa\LL	.	8C#/	et	8A/	et	8e\	et	8cc#\	et	.	.	.	.
.	.	16ee\	.	16aa\	.	.	.	.	.	.	.	.	.	.	.	.	.
8AA/J	.	16ee\	.	16aa\	.	8AA/	pro	8A/	pro	8e\	pro	8cc#\	pro	.	.	.	.
.	.	16ee\JJ	.	16aa\JJ	.	.	.	.	.	.	.	.	.	.	.	.	.
!LO:LB:g=original	!	!	!	!	!	!	!	!	!	!	!	!	!	!	!	!	!
8D\L	.	16ff#\LL	.	16aa\LL	.	8D/	no-	8A/	no-	8f#\	no-	8dd\	no-	.	.	.	.
.	.	16ff#\	.	16aa\	.	.	.	.	.	.	.	.	.	.	.	.	.
8E\	.	16cc#\	.	16ee\	.	8E\	-bis	8G#X/	-bis	8g#X\	-bis	8cc#\	-bis	.	.	.	.
.	.	16cc#\JJ	.	16ee\JJ	.	.	.	.	.	.	.	.	.	.	.	.	.
!	!	!	!	!	!	!LO:SIC:o:s=:v: Xſtum	!	!LO:SIC:o:s=:v: Xſtum	!	!LO:SIC:o:s=:v: Xſtum	!	!	!	!	!	!	!
8F#\	.	16dd\LL	.	16aa\LL	.	8F#\	(Chri)-	8A/	(Chri)-	8f#\	(Chri)-	8dd\	Chri-	.	.	.	.
.	.	16dd\	.	16aa\	.	.	.	.	.	.	.	.	.	.	.	.	.
8C#\J	6	16ee\	.	16aa\	.	8C#/	-ſtum	8A/	-ſtum	8e\	-ſtum	8ee\	-ſtum	.	.	.	.
.	.	16ee\JJ	.	16aa\JJ	.	.	.	.	.	.	.	.	.	.	.	.	.
!	!	!LO:LB:g=original	!	!	!	!	!	!	!	!	!	!	!	!	!	!	!
=38	=38	=38	=38	=38	=38	=38	=38	=38	=38	=38	=38	=38	=38	=38	=38	=38	=38
!LO:TX:t=P:problem=mixed beam	!	!	!	!	!	!	!	!	!	!	!	!	!	!	!	!	!
8D/L	6	16ff#\LL	.	16aa\LL	.	8r	.	8r	.	8r	.	8r	.	2r	.	2r	.
.	.	16ff#\	.	16aa\	.	.	.	.	.	.	.	.	.	.	.	.	.
8BB/	_ _	16ff#\	.	16aa\	.	8BB/	ex-	8B\	ex-	8f#\	ex-	8dd\	ex-	.	.	.	.
.	.	16ff#\JJ	.	16aa\JJ	.	.	.	.	.	.	.	.	.	.	.	.	.
!	!	!	!	!	!	!LO:TX:t=P:problem=mixed beam	!	!	!	!	!	!	!	!	!	!	!
8E\	5 4	16ee\LL	.	16aa\LL	.	8E\L	-o-	4B\	-o-	4g#X\	-o-	4b\	-o-	.	.	.	.
.	.	16ee\	.	16aa\	.	.	.	.	.	.	.	.	.	.	.	.	.
8EE/J	#	16b\	.	16gg#X\	.	8EE/J	.	.	.	.	.	.	.	.	.	.	.
.	.	16b\JJ	.	16gg#\JJ	.	.	.	.	.	.	.	.	.	.	.	.	.
!LO:TX:t=P:problem=mixed beam	!	!	!	!	!	!	!	!	!	!	!	!	!	!	!	!	!
8AA/L	.	16cc#\LL	.	16aa\LL	.	8AA/	-ra	8A/	-ra	8a\	-ta	8cc#\	-ra	8r	.	8r	.
.	.	16a#X\	.	16cc#\	.	.	.	.	.	.	.	.	.	.	.	.	.
8F#\	#	16a#\	.	16cc#\	.	8F#\	va-	8c#\	va-	8a#X\	va-	8cc#\	va-	8f#/L	.	8f#/L	.
.	.	16a#\JJ	.	16cc#\JJ	.	.	.	.	.	.	.	.	.	.	.	.	.
8F#\	.	16a#/LL	.	16cc#\LL	.	8F#\	-le	8c#\	-le	8a#\	-le	8cc#\	-le	8f#/	.	8f#/	.
.	.	16a#/	.	16cc#\	.	.	.	.	.	.	.	.	.	.	.	.	.
8F#\J	.	16a#/	.	16cc#\	.	8F#\	o	8f#\	o	8a#\	o	8cc#\	o	8f#/J	.	8f#/J	.
.	.	16a#/JJ	.	16cc#\JJ	.	.	.	.	.	.	.	.	.	.	.	.	.
=39	=39	=39	=39	=39	=39	=39	=39	=39	=39	=39	=39	=39	=39	=39	=39	=39	=39
8B\L	n	16b\LL	.	16dd\LL	.	8B\	va-	8d\	va-	16b\LL	val-	16dd\LL	va-	8f#/L	.	8f#/L	.
!	!	!	!	!	!	!	!	!	!	!LO:SIC:o:s=:v: niewyraźny znak krzyżyk/kasownik	!	!	!	!	!	!	!
.	.	16b\	.	16dd\	.	.	.	.	.	16a#X\JJ	.	16cc#\JJ	.	.	.	.	.
!	!	!	!	!	!	!	!	!LO:SIC:o:s=:v: niewyraźny dźwięk - rozmazany tusz	!	!	!	!	!	!	!	!	!
8F#\J	#	16cc#\	.	16ff#\	.	8F#\	-le	8e\	-le	8a#\	-de	8cc#\	-le	16f#/L	.	16f#/L	.
.	.	16cc#\JJ	.	16ff#\JJ	.	.	.	.	.	.	.	.	.	16f#/JJ	.	16f#/JJ	.
8r	.	16b/LL	.	8dd\L	.	8r	.	8r	.	8r	.	8r	.	8f#/L	.	8f#/L	.
.	.	16b/J	.	.	.	.	.	.	.	.	.	.	.	.	.	.	.
8F#\	.	8a#X/J	.	8cc#\J	.	8F#\	o	8c#\	o	8f#\	o	8cc#\	o	8f#/J	.	8f#/J	.
!	!	!	!	!	!	!	!	!	!	!	!	!LO:LB:g=original	!	!	!	!	!
!	!	!	!	!LO:TX:t=P:problem=mixed beam	!	!	!	!	!	!	!	!	!	!	!	!	!
8D/L	6	16b\LL	.	16b/LL	.	8D/L	val-	4d\	val-	4f#\	val-	4b\	val-	8f#/L	.	8f#/L	.
.	_	16b\	.	16ff#\	.	.	.	.	.	.	.	.	.	.	.	.	.
8C#/	.	16b\	.	16ff#\	.	8C#/J	.	.	.	.	.	.	.	16f#/L	.	16f#/L	.
.	.	16b\JJ	.	16ff#\JJ	.	.	.	.	.	.	.	.	.	16f#/JJ	.	16f#/JJ	.
8D/	.	16b\LL	.	16ff#\LL	.	8D/	-de	8d\	-de	8f#\	-de	8b\	-de	16f#/LL	.	16f#/LL	.
.	.	16b\	.	16ff#\	.	.	.	.	.	.	.	.	.	16f#/	.	16f#/	.
8BB/J	.	16cc#\	.	16ff#\	.	8BB/	de-	16e\LL	de-	8f#\	de-	16cc#\LL	de-	16f#/	.	16f#/	.
.	.	16b\JJ	.	16ff#\JJ	.	.	.	16d\JJ	.	.	.	16b\JJ	.	16f#/JJ	.	16f#/JJ	.
=40	=40	=40	=40	=40	=40	=40	=40	=40	=40	=40	=40	=40	=40	=40	=40	=40	=40
8F#\L	#_	16a#X/LL	.	16ff#\LL	.	8F#\	-co-	8c#\	-co-	8f#\	-co-	8a#X\	-co-	8f#/L	.	8f#/L	.
.	.	16cc#/	.	16ff#\	.	.	.	.	.	.	.	.	.	.	.	.	.
8E\J	.	16cc#/	.	16ff#\	.	8E\	-ra	8c#\	-ra	8f#\	-ra	8f#,/	-ra	8f#/J	.	8f#/J	.
.	.	16cc#/JJ	.	16ff#\JJ	.	.	.	.	.	.	.	.	.	.	.	.	.
!	!	!	!	!	!	!	!	!	!	!LO:LB:g=original	!	!	!	!	!	!	!
8D/L	6	16ff#\LL	.	16bb\LL	.	8D/	et	8d\	et	8f#\	et	8b\	et	4r	.	4r	.
.	.	16ff#\	.	16bb\	.	.	.	.	.	.	.	.	.	.	.	.	.
8BB/J	.	16ff#\	.	16bb\	.	8BB/	pro	8d\	pro	8f#\	pro	8b\	pro	.	.	.	.
.	.	16ff#\JJ	.	16bb\JJ	.	.	.	.	.	.	.	.	.	.	.	.	.
!	!	!	!	!	!	!	!	!LO:LB:g=original	!	!	!	!	!	!	!	!	!
8E\L	n	8gg\L	.	16bb\LL	.	8E\	no-	8e\	no-	8g\	no-	8b\	no-	4r	.	4r	.
.	.	.	.	16bb\	.	.	.	.	.	.	.	.	.	.	.	.	.
8F#\	#	8ff#\	.	16bb\	.	8F#\	-bis	8d\	-bis	8f#\	-bis	8a#X\	-bis	.	.	.	.
.	.	.	.	16bb\JJ	.	.	.	.	.	.	.	.	.	.	.	.	.
!	!	!	!	!	!	!LO:LB:g=original	!	!	!	!	!	!	!	!	!	!	!
8G\	6	8ee\	.	16bb\LL	.	8G\	Chri-	8e\	Chri-	8e\	Chri-	8b\	Chri-	8r	.	8r	.
.	.	.	.	16bb\	.	.	.	.	.	.	.	.	.	.	.	.	.
!	!	!	!	!	!	!	!	!	!	!	!	!	!	!	!	!LO:N:vis=4	!
8D\J	6	8ff#\J	.	16bb\	.	8D/	-ſtum	8d\	-ſtum	8f#\	-ſtum	8b\	-ſtum	8f#/	.	8f#/	.
.	.	.	.	16bb\JJ	.	.	.	.	.	.	.	.	.	.	.	.	.
!	!	!LO:LB:g=original	!	!	!	!	!	!	!	!	!	!	!	!LO:LB:g=original	!	!	!
=41	=41	=41	=41	=41	=41	=41	=41	=41	=41	=41	=41	=41	=41	=41	=41	=41	=41
!LO:TX:t=P:problem=mixed beam	!	!	!	!	!	!	!	!	!	!	!	!	!	!	!	!	!
8E\L	6 5	16gg\LL	.	16bb\LL	.	4E\	ex-	4c#\	ex-	4g\	ex-	4b\	ex-	8f#/L	.	8f#/L	.
.	_ _	16gg\	.	16bb\	.	.	.	.	.	.	.	.	.	.	.	.	.
8C#\	.	16gg\	.	16bb\	.	.	.	.	.	.	.	.	.	16f#/L	.	16f#/L	.
.	.	16gg\JJ	.	16bb\JJ	.	.	.	.	.	.	.	.	.	16f#/JJ	.	16f#/JJ	.
8F#\	5 4	16ff#\LL	.	16bb\LL	.	4F#\	-o-	4c#\	-o-	4f#\	-o-	8b\L	-o-	16f#/LL	.	16f#/LL	.
.	.	16ff#\	.	16bb\	.	.	.	.	.	.	.	.	.	16f#/	.	16f#/	.
!LO:SIC:o:s=:v: niewyraźny dźwięk - rozmazany tusz	!	!	!	!LO:SIC:s=:v:16aa#	!	!	!	!	!	!	!	!	!	!	!	!	!
8FF#/J	x #	16ff#\	.	16aa\	.	.	.	.	.	.	.	8a#X\J	.	16f#/	.	16f#/	.
!	!	!	!	!LO:SIC:s=:v:16aa#	!	!	!	!	!	!	!	!	!	!	!	!	!
.	.	16ff#\JJ	.	16aa\JJ	.	.	.	.	.	.	.	.	.	16f#/JJ	.	16f#/JJ	.
!LO:LB:g=original	!	!	!	!	!	!	!	!	!	!	!	!	!	!	!	!	!
!LO:TX:t=P:problem=mixed beam	!	!	!	!	!	!	!	!	!	!	!	!	!	!	!	!L	!
8BB/L	.	16ff#\LL	.	16bb\LL	.	8BB/	-ra	8B\	-ra	8f#\	-ra	8b\	-ra	8f#/	.	4f#/	.
.	.	16cc#\	.	16ee\	.	.	.	.	.	.	.	.	.	.	.	.	.
!LO:SIC:o:s=:v: niewyraźny dźwięk - rozmazany tusz	!	!	!	!	!	!	!	!	!	!	!	!	!	!	!	!	!
8B\	.	16cc#\	.	16ee\	.	8A\	va-	(16c#\LL	va-	8a\	va-	16ee\LL	va-	8r	.	.	.
.	.	16cc#\JJ	.	16ee\JJ	.	.	.	16B\JJ)	.	.	.	16dd\JJ	.	.	.	.	.
!	!	!	!	!LO:SIC:s=:v:16aan	!	!	!	!	!	!	!	!	!	!	!	!	!
8A\	.	16ee\LL	.	16aa\LL	.	8A\	-le	16A\LL	-le	8a\	-le	16cc#\LL	-le	4r	.	8r	.
.	.	16cc#\	.	16ee\	.	.	.	16B\JJ	.	.	.	16dd\JJ	.	.	.	.	.
!	!	!	!	!LO:SIC:s=:v:16aan	!	!	!	!	!	!	!	!	!	!	!	!LO:N:vis=4	!
8A\J	.	16ee\	.	16aa\	.	8A\	o	8c#\	o	8a\	o	8ee\	o	.	.	8r	.
.	.	16cc#\JJ	.	16ee\JJ	.	.	.	.	.	.	.	.	.	.	.	.	.
!	!	!	!	!LO:LB:g=original	!	!	!	!	!	!	!	!	!	!	!	!	!
=42	=42	=42	=42	=42	=42	=42	=42	=42	=42	=42	=42	=42	=42	=42	=42	=42	=42
8d\L	.	16a/LL	.	16ff#\LL	.	8d\	va-	8d\	va-	8a\	val-	8ff#\	va-	4r	.	4r	.
.	.	16cc#/	.	16aa\	.	.	.	.	.	.	.	.	.	.	.	.	.
8A\J	.	16cc#/	.	16aa\	.	8A\	-le	8c#\	-le	8a\	-de	8ee\	-le	.	.	.	.
.	.	16cc#/JJ	.	16aa\JJ	.	.	.	.	.	.	.	.	.	.	.	.	.
!	!	!	!	!	!	!	!	!	!	!	!	!LO:LB:g=original	!	!	!	!	!
8r	.	16dd\LL	.	16ff#\LL	.	8r	.	8r	.	8r	.	8r	.	8dd\L	.	8ff#\L	.
!	!	!	!	!LO:SIC:o:s=:v: niewyraźny dźwięk - rozmazany tusz	!	!	!	!	!	!	!	!	!	!	!	!	!
.	.	16dd\	.	16ff#\	.	.	.	.	.	.	.	.	.	.	.	.	.
8A\	.	16cc#\	.	16ee\	.	8A\	o	8c#\	o	8a\	o	8ee\	o	8a\J	.	8ee\J	.
.	.	16cc#\JJ	.	16ee\JJ	.	.	.	.	.	.	.	.	.	.	.	.	.
!	!	!LO:TX:t=P:problem=mixed beam	!	!	!	!	!	!	!	!	!	!	!	!	!	!LO:LB:g=original	!
8F#\L	6	16a/LL	.	16dd\LL	.	8F#\L	val-	4d\	val-	4a\	val-	4dd\	val-	4r	.	4r	.
.	.	16ff#\	.	16aa\	.	.	.	.	.	.	.	.	.	.	.	.	.
8E\	.	16ff#\	.	16aa\	.	8E\J	.	.	.	.	.	.	.	.	.	.	.
.	.	16ff#\JJ	.	16aa\JJ	.	.	.	.	.	.	.	.	.	.	.	.	.
8F#\	.	16dd\LL	.	16ff#\LL	.	8F#\	-de	8A/	-de	8a\	-de	8dd\	-de	8r	.	8r	.
.	.	16ff#\	.	16aa\	.	.	.	.	.	.	.	.	.	.	.	.	.
8D\J	.	16ff#\	.	16aa\	.	8D/	de-	8d\	de-	8a\	de-	16ee\LL	de-	8ff#\	.	8aa\	.
.	.	16ff#\JJ	.	16aa\JJ	.	.	.	.	.	.	.	16dd\JJ	.	.	.	.	.
=43	=43	=43	=43	=43	=43	=43	=43	=43	=43	=43	=43	=43	=43	=43	=43	=43	=43
8A\L	.	16a\LL	.	16cc#\LL	.	8A\	-co-	8e\	-co-	8a\	-co-	8cc#\	-co-	8ee\L	.	8aa\L	.
.	.	16ee\	.	16aa\	.	.	.	.	.	.	.	.	.	.	.	.	.
8G\	4 2	16ee\	.	16aa\	.	8G\	-ra	8e\	-ra	8a\	-ra	8a\	-ra	16ee\L	.	16aa\L	.
.	.	16ee\JJ	.	16aa\JJ	.	.	.	.	.	.	.	.	.	16ee\JJ	.	16aa\JJ	.
!	!	!LO:TX:t=P:problem=mixed beam	!	!	!	!	!	!	!	!	!	!	!	!	!	!	!
8F#\	6	16d/LL	.	16a\LL	.	8F#\	et	8A/	et	8a\	et	8dd\	et	8ff#\L	.	8aa\L	.
.	.	16dd\	.	16aa\	.	.	.	.	.	.	.	.	.	.	.	.	.
8D\J	.	16dd\	.	16aa\	.	8D/	pro	8A/	pro	8a\	pro	8dd\	pro	8ff#\J	.	8aa\J	.
.	.	16dd\JJ	.	16aa\JJ	.	.	.	.	.	.	.	.	.	.	.	.	.
8G\L	.	16dd\LL	.	16gg\LL	.	8G\	no-	8d\	no-	8g\	no-	8dd\	no-	8dd\L	.	8gg\L	.
.	.	16dd\	.	16dd\	.	.	.	.	.	.	.	.	.	.	.	.	.
!	!	!	!	!	!	!	!	!	!	!LO:SIC:o:s=:v: niewyraźny dźwięk	!	!	!	!	!	!	!
8A\	6	16dd\	.	16dd\	.	8A\	-bis	8A/	-bis	8f#\	-bis	8cc#\	-bis	8a\	.	8ff#\	.
.	.	16dd\JJ	.	16dd\JJ	.	.	.	.	.	.	.	.	.	.	.	.	.
!	!	!LO:LB:g=original	!	!	!	!	!	!	!	!LO:LB:g=original	!	!	!	!	!	!	!
8B\	6	16dd\LL	.	16gg\LL	.	8B\	Chri-	8d\	Chri-	8g\	Chri-	8dd\	Chri-	8dd\	.	8gg\	.
.	.	16dd\	.	16gg\	.	.	.	.	.	.	.	.	.	.	.	.	.
8F#\J	6	16dd\	.	16aa\	.	8F#\	-ſtum	8f#\	-ſtum	8a\	-ſtum	8dd\	-ſtum	8ff#\J	.	8aa\J	.
.	.	16dd\JJ	.	16aa\JJ	.	.	.	.	.	.	.	.	.	.	.	.	.
!	!	!	!	!	!	!LO:LB:g=original	!	!LO:LB:g=original	!	!	!	!	!	!	!	!	!
=44	=44	=44	=44	=44	=44	=44	=44	=44	=44	=44	=44	=44	=44	=44	=44	=44	=44
!LO:TX:t=P:problem=mixed beam	!	!	!	!	!	!	!	!	!	!	!	!	!	!	!	!	!
8G\L	6 5	16ee\LL	.	16gg\LL	.	8G\L	ex-	4e\	ex-	4g\	ex-	4dd\	ex-	8ee\L	.	8gg\L	.
.	_ _	16gg\	.	16bb\	.	.	.	.	.	.	.	.	.	.	.	.	.
8E\	.	16gg\	.	16bb\	.	8E\J	.	.	.	.	.	.	.	8dd\J	.	16gg\L	.
.	.	16gg\JJ	.	16bb\JJ	.	.	.	.	.	.	.	.	.	.	.	16ff#\JJ	.
!	!	!	!	!	!	!LO:TX:t=P:problem=mixed beam	!	!	!	!	!	!	!	!	!	!	!
!	!	!	!	!LO:LB:g=original	!	!	!	!	!	!	!	!	!	!	!	!	!
8A\	x 4	16ee\LL	.	16aa\LL	.	8A\L	-o-	4e\	-o-	4e\	-o-	8dd\L	-o-	16a/LL	.	8.ee\L	.
.	.	16ee\	.	16aa\	.	.	.	.	.	.	.	.	.	16f#/	.	.	.
8AA/J	x 3	16ee\	.	16aa\	.	8AA/J	.	.	.	.	.	8cc#\J	.	16d/	.	.	.
.	.	16ee\JJ	.	16aa\JJ	.	.	.	.	.	.	.	.	.	16a/JJ	.	16ee\Jk	.
!	!	!	!	!	!	!	!	!	!	!	!	!	!	!LO:TX:t=P:problem=mixed beam	!	!	!
4D/	.	16ff#\LL	.	16aa\LL	.	4D/	-ra	4d\	-ra	4f#\	-ra	4dd\	-ra	8f#/L	.	8ff#\L	.
.	.	16ff#\	.	16aa\	.	.	.	.	.	.	.	.	.	.	.	.	.
.	.	16ff#\	.	16aa\	.	.	.	.	.	.	.	.	.	16dd/L	.	16ff#\L	.
.	.	16ff#\JJ	.	16aa\JJ	.	.	.	.	.	.	.	.	.	16dd\JJ	.	16ff#\JJ	.
8d\L	.	16ff#\LL	.	16aa\LL	.	8d\	va-	8d\	va-	8a\	va-	8dd\	va-	16ee\LL	.	16aa\LL	.
.	.	16ff#\	.	16aa\	.	.	.	.	.	.	.	.	.	16ee\	.	16aa\	.
8A\J	.	16ee\	.	16aa\	.	8A\	-le	8c#\	-le	8a\	-le	8ee\	-le	16ee\	.	16aa\	.
.	.	16ee\JJ	.	16aa\JJ	.	.	.	.	.	.	.	.	.	16ee\JJ	.	16aa\JJ	.
=45	=45	=45	=45	=45	=45	=45	=45	=45	=45	=45	=45	=45	=45	=45	=45	=45	=45
!LO:TX:t=P:problem=mixed beam	!	!	!	!	!	!	!	!	!	!	!	!	!	!	!	!	!
8d\L	.	8ff#\L	.	8aa\L	.	8d\	va-	8d\	va-	8a\	va-	8ff#\	va-	8dd\L	.	8ff#\L	.
8D/J	.	8ff#\J	.	8aa\J	.	8d\	-le	8d\	-le	8a\	-le	8ff#\	-le	8dd\J	.	8ff#\J	.
4r	.	4r	.	4r	.	4r	.	4r	.	4r	.	4r	.	4r	.	4r	.
2r	.	2r	.	2r	.	2r	.	2r	.	2r	.	2r	.	2r	.	2r	.
==	==	==	==	==:||:	==	==	==	==	==	==	==	==	==	==:||:	==	==	==
*-	*-	*-	*-	*-	*-	*-	*-	*-	*-	*-	*-	*-	*-	*-	*-	*-	*-
!!!system-decoration: [(s1,s2)][(s3,s4,s5,s6)][(s7,s8)][(s9)]
!!!RDF**dynam: p = piano
!!!RDF**dynam: f = forte
!!!EED: Leszek Kubiak
!!!EST: 2020-11-23
!!!ENC: Marta Chmielewska
!!!END: 2020-05-07
